scripts/05_editing/0500_uxp/LUTs/01_bright_scene.cube
TITLE "Generated by Resolve"
LUT_3D_SIZE 33
0 0 0
0 0 0
0 0 0
0 0 0
0 0 0
0.0212711 7.62951e-05 0
0.047715 0.000717174 0
0.07364 0.00125124 0
0.0996414 0.00173953 0
0.122713 0.00238041 0
0.147875 0.00291447 0
0.176486 0.00344854 0
0.206958 0.00408942 0
0.239582 0.00480659 0
0.275013 0.00555428 0
0.313146 0.00640879 0
0.354345 0.00738537 0
0.399084 0.00842298 0
0.447654 0.00947585 0
0.500267 0.0105898 0
0.55726 0.0117647 0
0.619715 0.0133059 0
0.687434 0.0147707 0
0.761425 0.0164034 0
0.841611 0.0179599 0
0.927947 0.0199893 0
1 0.0217441 0
1 0.0234684 0
1 0.0234684 0
1 0.0234684 0
1 0.0234684 0
1 0.0234684 0
1 0.0234684 0
0 0 0
0 0 0
0 0 0
0 0 0
0 0 0
0.0162356 7.62951e-05 0
0.0423285 0.000610361 0
0.0684367 0.00109865 0
0.0946059 0.0016022 0
0.118227 0.00230411 0
0.144106 0.00277714 0
0.173022 0.00337224 0
0.203906 0.00401312 0
0.237064 0.00469978 0
0.272602 0.00550851 0
0.311009 0.00636301 0
0.352453 0.00733959 0
0.397528 0.00836194 0
0.44625 0.00952163 0
0.498909 0.0105592 0
0.556176 0.0117037 0
0.618647 0.0132753 0
0.686488 0.0147402 0
0.760708 0.0163424 0
0.840818 0.0179446 0
0.927367 0.0199588 0
1 0.0217288 0
1 0.0234684 0
1 0.0234684 0
1 0.0234684 0
1 0.0234684 0
1 0.0234684 0
1 0.0234684 0
0 0 0
0 0 0
0 0 0
0 0 0
0 0 0
0.0108034 0 0
0.0369116 0.000442512 0
0.0630198 0.000915541 0
0.0893721 0.00161746 0
0.113619 0.00215152 0
0.13994 0.00268559 0
0.169543 0.00325017 0
0.200702 0.00395209 0
0.234241 0.004654 0
0.2701 0.00544747 0
0.308797 0.00631724 0
0.350652 0.00724804 0
0.395819 0.00830091 0
0.444678 0.00949111 0
0.49752 0.0105287 0
0.554986 0.0116579 0
0.617548 0.0132601 0
0.685481 0.014725 0
0.759793 0.0163272 0
0.840055 0.0179294 0
0.926741 0.019913 0
1 0.0217441 0
1 0.0234684 0
1 0.0234684 0
1 0.0234684 0
1 0.0234684 0
1 0.0234684 0
1 0.0234684 0
0 0 0
0 0 0
0 0 0
0 0 0
0 0 0
0.00515755 0 0
0.0314488 0.000259403 0
0.0573587 0.000793469 0
0.083711 0.0015259 0
0.108827 0.00199893 0
0.135805 0.00254826 0
0.165805 0.00315862 0
0.197726 0.00395209 0
0.23151 0.00476081 0
0.267781 0.00541695 0
0.306691 0.00630198 0
0.348638 0.00720226 0
0.394018 0.00827039 0
0.443076 0.00946059 0
0.496117 0.0104829 0
0.553735 0.0116426 0
0.616571 0.0131838 0
0.684657 0.0146487 0
0.758923 0.0163119 0
0.839246 0.0179141 0
0.92607 0.0198978 0
1 0.0217746 0
1 0.0234684 0
1 0.0234684 0
1 0.0234684 0
1 0.0234684 0
1 0.0234684 0
1 0.0234684 0
0 0 0
0 0 0
0 0 0
0 0 0
0 0 0
0 0 0
0.0249332 6.10361e-05 0
0.0511025 0.000854505 0
0.0771954 0.00132753 0
0.102785 0.0018616 0
0.13077 0.00238041 0
0.1617 0.00325017 0
0.193912 0.00399786 0
0.228305 0.00471504 0
0.264927 0.00552377 0
0.304234 0.00637827 0
0.346242 0.00714122 0
0.391897 0.00822461 0
0.441367 0.00936904 0
0.494591 0.0104067 0
0.5523 0.0117037 0
0.615244 0.0131533 0
0.683452 0.0146181 0
0.757839 0.0162814 0
0.838346 0.0179294 0
0.92517 0.0198672 0
1 0.0217899 0
1 0.0234684 0
1 0.0234684 0
1 0.0234684 0
1 0.0234684 0
1 0.0234684 0
1 0.0234684 0
0 0.0112764 0
0 0.00923171 0
0 0.00714122 0
0 0.00523384 0
0 0.00280766 0
0 0 0
0.0174258 0.000106813 0
0.0433356 0.00062562 0
0.0694438 0.00111391 0
0.095491 0.00164797 0
0.124651 0.00231937 0
0.156237 0.00315862 0
0.189319 0.00384527 0
0.224155 0.00462348 0
0.261265 0.00544747 0
0.30103 0.00633249 0
0.343557 0.00703441 0
0.389425 0.00814832 0
0.439109 0.00932326 0
0.492561 0.0103609 0
0.550607 0.0117647 0
0.613672 0.0131228 0
0.682033 0.0146029 0
0.756558 0.0162661 0
0.837247 0.0179599 0
0.924178 0.019852 0
1 0.0218204 0
1 0.0234684 0
1 0.0234684 0
1 0.0234684 0
1 0.0234684 0
1 0.0234684 0
1 0.0234684 0
0 0.0373693 0
0 0.0353399 0
0 0.0332189 0
0 0.0310826 0
0 0.0289158 0
0 0.0259098 0
0.00831617 0.0219883 0
0.0377661 0.0178683 0.000549325
0.0628824 0.0157321 0.0009308
0.0876783 0.0135958 0
0.118074 0.0106966 0
0.150622 0.00665293 0
0.184024 0.00367742 0
0.219547 0.00447089 0
0.257252 0.00531014 0
0.29752 0.00621042 0
0.340429 0.00708019 0
0.386664 0.00805676 0
0.43653 0.00926223 0
0.490288 0.0103151 0
0.548836 0.0117189 0
0.611841 0.013077 0
0.680415 0.0145571 0
0.755138 0.0162356 0
0.836225 0.0179599 0
0.923003 0.0198215 0
1 0.0218509 0
1 0.0234684 0
1 0.0234684 0
1 0.0234684 0
1 0.0234684 0
1 0.0234684 0
1 0.0234684 0
0 0.0632944 0
0 0.0612497 0
0 0.059144 0
0 0.0570077 0
0 0.0547341 0
0 0.0518349 0
0 0.0485389 0
0.0279393 0.0432136 0
0.0582589 0.0388342 0
0.0853742 0.0356451 0.00328069
0.115496 0.0326543 0.00416571
0.146212 0.0297704 0
0.180056 0.0249943 0
0.216129 0.0188602 0
0.253956 0.0109255 0
0.293828 0.00611887 0
0.337331 0.00714122 0
0.38378 0.00798047 0
0.43418 0.00915541 0
0.488167 0.0102235 0
0.546822 0.0116732 0
0.610056 0.0130312 0
0.678828 0.0145266 0
0.753735 0.0161898 0
0.83505 0.0180056 0
0.921904 0.0198062 0
1 0.0218509 0
1 0.0234684 0
1 0.0234684 0
1 0.0234684 0
1 0.0234684 0
1 0.0234684 0
1 0.0234684 0
0 0.0892195 0
0 0.0871748 0
0 0.0850538 0
0 0.0829175 0
0 0.0804913 0
0 0.0777295 0
0 0.0743725 0
0.0118868 0.0700084 0
0.0474403 0.0641947 0
0.0787366 0.0597696 0
0.110643 0.056199 0.000442512
0.147326 0.0510719 0.00682078
0.179553 0.0469673 0.00408942
0.213382 0.0420691 0
0.25095 0.0345006 0
0.291478 0.0251774 0
0.335042 0.0134737 0
0.381033 0.00787366 0
0.431586 0.00909438 0
0.485924 0.0101625 0
0.544793 0.0116274 0
0.608423 0.0129549 0
0.677378 0.0144503 0
0.752483 0.0161135 0
0.833783 0.0179751 0
0.92079 0.0197757 0
1 0.0218204 0
1 0.0234684 0
1 0.0234684 0
1 0.0234684 0
1 0.0234684 0
1 0.0234684 0
1 0.0234684 0
0 0.114809 0
0 0.113039 0
0 0.11104 0
0 0.108995 0
0 0.106661 0
0 0.103731 0
0 0.100298 0
0 0.0965438 0
0.0313725 0.0910506 0
0.0671092 0.0854047 0
0.105974 0.0797436 0
0.141466 0.075639 0
0.180865 0.0686046 0.00801099
0.216434 0.0629129 0.00859083
0.250248 0.057145 0.00117494
0.289494 0.0485389 0
0.332769 0.0371557 0
0.379477 0.0228733 0
0.429007 0.0090486 0
0.483711 0.010193 0
0.542733 0.0115816 0
0.606607 0.0129091 0
0.675792 0.0144045 0
0.751064 0.016083 0
0.832517 0.0179599 0
0.919799 0.0197147 0
1 0.0217899 0
1 0.0234684 0
1 0.0234684 0
1 0.0234684 0
1 0.0234684 0
1 0.0234684 0
1 0.0234684 0
0 0.143023 0
0 0.141436 0
0 0.139696 0
0 0.138064 0
0 0.13608 0
0 0.133562 0
0 0.130755 0
0 0.127855 0
0.0117037 0.123415 0
0.0470283 0.118212 0
0.0915999 0.111574 0
0.137148 0.104997 0
0.17435 0.10013 0
0.216602 0.0912795 0.00813306
0.255329 0.0835737 0.0117952
0.292027 0.0759289 0.00630198
0.331731 0.0661021 0
0.377462 0.0524147 0
0.42768 0.0353399 0
0.481773 0.0138552 0
0.540352 0.0114748 0
0.604318 0.0128634 0
0.673747 0.0143587 0
0.749233 0.0160525 0
0.830915 0.0179141 0
0.918395 0.0196841 0
1 0.0217594 0
1 0.0234684 0
1 0.0234684 0
1 0.0234684 0
1 0.0234684 0
1 0.0234684 0
1 0.0234684 0
0 0.174624 0
0 0.173312 0
0 0.171801 0
0 0.17026 0
0 0.168429 0
0 0.166323 0
0 0.163851 0
0 0.161608 0
0 0.15845 0
0.022446 0.15407 0
0.0677653 0.147753 0
0.121614 0.140169 0
0.16939 0.133455 0
0.209232 0.127886 0
0.25272 0.119966 0.00491341
0.297108 0.110048 0.0133059
0.339086 0.0999924 0.0137484
0.378622 0.0888685 0.00270085
0.426139 0.072755 0
0.47982 0.0520027 0
0.538506 0.0260319 0
0.60145 0.0127718 0
0.671138 0.0142977 0
0.746899 0.0159915 0
0.828962 0.0178378 0
0.916564 0.0196384 0
1 0.0217136 0
1 0.0234684 0
1 0.0234684 0
1 0.0234684 0
1 0.0234684 0
1 0.0234684 0
1 0.0234684 0
0 0.208194 0
0 0.206928 0
0 0.205585 0
0 0.204242 0
0 0.202655 0
0 0.200839 0
0 0.198886 0
0 0.19675 0
0 0.194553 0
0 0.191241 0
0.0384375 0.185946 0
0.0968032 0.178302 0
0.153246 0.170413 0
0.203082 0.163241 0
0.246738 0.157305 0
0.289967 0.149966 0.000350958
0.341543 0.138308 0.0140993
0.388144 0.126818 0.0177005
0.432685 0.114412 0.0107576
0.480125 0.0970779 0
0.537026 0.0720226 0
0.600015 0.0404364 0
0.668086 0.0141909 0
0.744213 0.0158846 0
0.826459 0.0177768 0
0.914305 0.0195773 0
1 0.0216526 0
1 0.0234684 0
1 0.0234684 0
1 0.0234684 0
1 0.0234684 0
1 0.0234684 0
1 0.0234684 0
0 0.243977 0
0 0.242863 0
0 0.241703 0
0 0.240513 0
0 0.239109 0
0 0.23743 0
0 0.235615 0
0 0.233951 0
0 0.232059 0
0 0.230137 0
0.00489815 0.225544 0
0.0612802 0.21912 0
0.12752 0.210605 0
0.186114 0.202472 0
0.239261 0.194934 0
0.286992 0.188159 0
0.332082 0.180957 0
0.388724 0.168185 0.0134737
0.440314 0.155459 0.0202182
0.491279 0.141146 0.0187076
0.53994 0.124605 0.00320439
0.59942 0.0959793 0
0.666773 0.0576638 0
0.740703 0.0158083 0
0.823316 0.0177005 0
0.911757 0.0195163 0
1 0.0215915 0
1 0.0234684 0
1 0.0234684 0
1 0.0234684 0
1 0.0234684 0
1 0.0234684 0
1 0.0234684 0
0 0.282338 0
0 0.281422 0
0 0.280415 0
0 0.279408 0
0 0.278187 0
0 0.276692 0
0 0.275029 0
0 0.27335 0
0 0.271672 0
0 0.270329 0
0 0.267765 0
0.0214389 0.262028 0
0.0902571 0.254368 0
0.159457 0.245319 0
0.221027 0.236789 0
0.277943 0.228733 0
0.330266 0.221134 0
0.378256 0.213718 0
0.438621 0.200458 0.0116884
0.496468 0.186069 0.0222477
0.553277 0.170169 0.0241245
0.606088 0.152346 0.00943008
0.667826 0.123995 0
0.740429 0.0785077 0
0.82118 0.0210117 0
0.908522 0.0196384 0
1 0.0215152 0
1 0.0234684 0
1 0.0234684 0
1 0.0234684 0
1 0.0234684 0
1 0.0234684 0
1 0.0234684 0
0 0.323613 0
0 0.322789 0
0 0.321889 0
0 0.320958 0
0 0.31986 0
0 0.318746 0
0 0.317327 0
0 0.315847 0
0 0.314443 0
0 0.312947 0
0 0.31107 0
0 0.307576 0
0.0424659 0.300908 0
0.120653 0.292165 0
0.193301 0.282628 0
0.25835 0.273686 0
0.319356 0.264927 0
0.376471 0.256458 0
0.428321 0.248798 0
0.491112 0.235264 0.00848402
0.557137 0.218891 0.0239567
0.61973 0.201419 0.0283818
0.679988 0.181308 0.0182193
0.74316 0.153063 0
0.820081 0.10338 0
0.906188 0.0345464 0
1 0.0214084 0
1 0.0234684 0
1 0.0234684 0
1 0.0234684 0
1 0.0234684 0
1 0.0234684 0
1 0.0234684 0
0 0.368185 0
0 0.367483 0
0 0.366796 0
0 0.366049 0
0 0.365118 0
0 0.363958 0
0 0.362646 0
0 0.361334 0
0 0.360021 0
0 0.358709 0
0 0.357122 0
0 0.3552 0
0 0.350332 0
0.0687419 0.342367 0
0.152529 0.333059 0
0.229252 0.322942 0
0.29868 0.31342 0
0.364157 0.304067 0
0.426566 0.294606 0
0.482551 0.286229 0
0.547326 0.273014 0.00436408
0.622538 0.254002 0.0251316
0.691661 0.234836 0.0321355
0.759503 0.212161 0.026276
0.825315 0.183551 0.00234989
0.906386 0.133257 0
0.998489 0.0518807 0
1 0.0234226 0
1 0.0234684 0
1 0.0234684 0
1 0.0234684 0
1 0.0234684 0
1 0.0234684 0
0 0.41651 0
0 0.415869 0
0 0.415259 0
0 0.414603 0
0 0.413733 0
0 0.412695 0
0 0.411536 0
0 0.410376 0
0 0.409186 0
0 0.408118 0
0 0.406638 0
0 0.40473 0
0 0.402686 0
0.00108339 0.396323 0
0.097612 0.387411 0
0.18613 0.377005 0
0.267201 0.366384 0
0.34165 0.356191 0
0.412467 0.346075 0
0.480262 0.335805 0
0.541222 0.326726 0
0.609537 0.313329 0.00132753
0.693645 0.291875 0.0262303
0.769238 0.270665 0.0353552
0.845228 0.245716 0.0334325
0.914611 0.216236 0.00729381
1 0.164935 0
1 0.0742809 0
1 0.0234684 0
1 0.0234684 0
1 0.0234684 0
1 0.0234684 0
1 0.0234684 0
0 0.468879 0
0 0.468284 0
0 0.467628 0
0 0.466987 0
0 0.466209 0
0 0.465263 0
0 0.46424 0
0 0.463371 0
0 0.462409 0
0 0.461372 0
0 0.460151 0
0 0.458473 0
0 0.456413 0
0 0.453895 0
0.020798 0.44596 0
0.12752 0.435996 0
0.221698 0.42475 0
0.30837 0.413352 0
0.387915 0.40238 0
0.464378 0.391394 0
0.538399 0.380133 0
0.604685 0.370321 0
0.678019 0.356542 0
0.770397 0.332708 0.0268864
0.853803 0.309667 0.0390021
0.936507 0.282277 0.0398108
1 0.250935 0.0137789
1 0.198825 0
1 0.100267 0
1 0.0234684 0
1 0.0234684 0
1 0.0234684 0
1 0.0234684 0
0 0.525505 0
0 0.524956 0
0 0.524361 0
0 0.523842 0
0 0.523262 0
0 0.522499 0
0 0.52163 0
0 0.520745 0
0 0.519814 0
0 0.518883 0
0 0.517723 0
0 0.516228 0
0 0.514397 0
0 0.512245 0
0 0.509377 0
0.0455787 0.499458 0
0.158801 0.488548 0
0.259861 0.47657 0
0.352026 0.464286 0
0.438117 0.452613 0
0.521157 0.440742 0
0.601617 0.428214 0
0.674006 0.417517 0
0.752789 0.402747 0
0.85362 0.377096 0.027451
0.944533 0.35198 0.0425879
1 0.322255 0.0457923
1 0.288289 0.0225376
1 0.232959 0
1 0.132891 0
1 0.0234684 0
1 0.0234684 0
1 0.0234684 0
0 0.587076 0
0 0.586572 0
0 0.586053 0
0 0.585519 0
0 0.585 0
0 0.584405 0
0 0.583597 0
0 0.582757 0
0 0.581933 0
0 0.581155 0
0 0.580163 0
0 0.57882 0
0 0.577188 0
0 0.575189 0
0 0.572808 0
0 0.568872 0
0.0721904 0.557397 0
0.192325 0.545541 0
0.300603 0.532647 0
0.399725 0.519448 0
0.492576 0.506889 0
0.582513 0.493843 0
0.670283 0.480507 0
0.749722 0.468681 0
0.834623 0.452979 0
0.942412 0.425467 0.0270085
1 0.397803 0.0458228
1 0.365774 0.0516518
1 0.324163 0.0406348
1 0.26807 0.00943008
1 0.168795 0
1 0.0234684 0
1 0.0234684 0
0 0.654078 0
0 0.653635 0
0 0.653193 0
0 0.65272 0
0 0.652186 0
0 0.651514 0
0 0.650767 0
0 0.650065 0
0 0.649378 0
0 0.64863 0
0 0.647684 0
0 0.646479 0
0 0.645106 0
0 0.643549 0
0 0.641459 0
0 0.638849 0
0 0.633433 0
0.0994125 0.620661 0
0.227985 0.607721 0
0.343923 0.593591 0
0.450675 0.579446 0
0.551369 0.565881 0
0.649042 0.551705 0
0.745174 0.537041 0
0.831647 0.524208 0
0.922393 0.507637 0
1 0.47863 0.0256352
1 0.448035 0.0494545
1 0.412222 0.0542611
1 0.365087 0.0517433
1 0.304479 0.0301518
1 0.209705 0
1 0.0234684 0
0 0.72694 0
0 0.726558 0
0 0.726131 0
0 0.725704 0
0 0.7252 0
0 0.724636 0
0 0.723964 0
0 0.723308 0
0 0.722637 0
0 0.721965 0
0 0.721141 0
0 0.720058 0
0 0.718837 0
0 0.717266 0
0 0.715618 0
0 0.713252 0
0 0.71046 0
0 0.703716 0
0.128206 0.689235 0
0.265965 0.675242 0
0.390921 0.659968 0
0.506325 0.644724 0
0.615106 0.629908 0
0.721843 0.61474 0
0.826108 0.598535 0
0.9196 0.584634 0
1 0.567056 0
1 0.536751 0.0234989
1 0.50277 0.0450752
1 0.463111 0.0512398
1 0.412573 0.0542458
1 0.34612 0.048127
1 0.251347 0.00354009
0 0.80618 0
0 0.805859 0
0 0.805478 0
0 0.805142 0
0 0.80473 0
0 0.804211 0
0 0.803586 0
0 0.803037 0
0 0.802411 0
0 0.801831 0
0 0.801175 0
0 0.800366 0
0 0.799207 0
0 0.797803 0
0 0.79617 0
0 0.794095 0
0 0.791531 0
0 0.788678 0
0 0.780118 0
0.158312 0.764279 0
0.306706 0.749096 0
0.441428 0.732341 0
0.56643 0.715938 0
0.684962 0.699825 0
0.800732 0.68336 0
0.913054 0.66598 0
1 0.650782 0
1 0.632013 0
1 0.604105 0.0053254
1 0.566567 0.0232395
1 0.521263 0.0404822
1 0.467109 0.0508125
1 0.39472 0.0541543
0 0.892424 0
0 0.892073 0
0 0.891737 0
0 0.891447 0
0 0.891081 0
0 0.890623 0
0 0.890105 0
0 0.889586 0
0 0.889067 0
0 0.888548 0
0 0.887846 0
0 0.886976 0
0 0.886015 0
0 0.884978 0
0 0.883406 0
0 0.881621 0
0 0.879362 0
0 0.87657 0
0 0.873503 0
0 0.862669 0
0.190143 0.845762 0
0.350835 0.828733 0
0.496742 0.810956 0
0.632395 0.793194 0
0.760494 0.775799 0
0.884733 0.757961 0
1 0.739193 0
1 0.722438 0
1 0.701869 0
1 0.674128 0
1 0.638666 0
1 0.591653 0.0105898
1 0.527626 0.0385138
0 0.985092 0
0 0.984756 0
0 0.984482 0
0 0.984192 0
0 0.983825 0
0 0.983383 0
0 0.982925 0
0 0.982498 0
0 0.982071 0
0 0.981674 0
0 0.98114 0
0 0.980362 0
0 0.979461 0
0 0.978302 0
0 0.976989 0
0 0.975341 0
0 0.973327 0
0 0.970855 0
0 0.968124 0
0 0.964431 0
0.00749218 0.951263 0
0.22678 0.933074 0
0.399802 0.914733 0
0.5579 0.895155 0
0.704189 0.876036 0
0.841825 0.857343 0
0.975433 0.838193 0
1 0.817838 0
1 0.798993 0
1 0.775631 0
1 0.74612 0
1 0.709941 0
1 0.663066 0
0 1 0
0 1 0
0 1 0
0 1 0
0 1 0
0 1 0
0 1 0
0 1 0
0 1 0
0 1 0
0 1 0
0 1 0
0 1 0
0 1 0
0 1 0
0 1 0
0 1 0
0 1 0
0 1 0
0 1 0
0 1 0
0.0350042 1 0
0.267277 1 0
0.454536 1 0
0.624811 0.985519 0
0.781292 0.965148 0
0.929168 0.945068 0
1 0.924102 0
1 0.902174 0
1 0.880293 0
1 0.853941 0
1 0.822904 0
1 0.784695 0
0 1 0
0 1 0
0 1 0
0 1 0
0 1 0
0 1 0
0 1 0
0 1 0
0 1 0
