scripts/05_editing/0500_uxp/LUTs/01_bright_scene.cube
TITLE "Generated by Resolve"
LUT_3D_SIZE 5
0 0 0
0.0996414 0.00173953 0
0.354345 0.00738537 0
0.841611 0.0179599 0
1 0.0234684 0
0 0.0892195 0
0.0474403 0.0641947 0
0.335042 0.0134737 0
0.833783 0.0179751 0
1 0.0234684 0
0 0.368185 0
0 0.360021 0
0.29868 0.31342 0
0.825315 0.183551 0.00234989
1 0.0234684 0
0 0.892424 0
0 0.889067 0
0 0.879362 0
0.760494 0.775799 0
1 0.527626 0.0385138
0 1 0
0 1 0
0 1 0
0 1 0
1 1 0
0.0027924 0 0.0792554
0.10486 0 0.0740826
0.356146 0.00576791 0.0369421
0.840238 0.0179294 0
1 0.0234684 0
0 0.0604562 0.0411688
0.0369116 0.0369116 0.0369116
0.333349 0.00605783 0.0157931
0.832425 0.0179599 0
1 0.0234684 0
0 0.357122 0
0 0.348714 0
0.294316 0.301762 0
0.820447 0.16614 0
1 0.0234684 0
0 0.8878 0
0 0.884627 0
0 0.874617 0
0.75874 0.770962 0
1 0.520897 0.0405737
0 1 0
0 1 0
0 1 0
0 1 0
1 1 0
0.0151217 0 0.392554
0.0916152 0 0.380499
0.388922 0 0.404074
0.883116 0.00180056 0.276234
1 0.0199893 0.0614328
0.0146639 0 0.38146
0.0254978 0 0.377829
0.363119 0 0.391119
0.872251 0.00256352 0.263813
1 0.0206455 0.0401617
0 0.321019 0.285435
0 0.311742 0.284047
0.267582 0.267582 0.267582
0.828061 0.0968795 0.220279
1 0.0234836 0
0 0.874662 0
0 0.871199 0
0 0.861234 0
0.754025 0.757458 0
1 0.501152 0.0455024
0 1 0
0 1 0
0 1 0
0 1 0
1 1 0
0.0382696 0 0.973495
0.0382391 0 0.972808
0.35436 0 0.935561
0.924971 0 1
1 0 0.899428
0.038117 0 0.969741
0.0380865 0 0.96878
0.332982 0 0.931914
0.914794 0 1
1 0 0.892683
0.0216373 0.0463874 0.948959
0.026215 0.0249485 0.950332
0.250843 0 0.92607
0.884047 0 0.986755
1 0 0.87332
0 0.802915 0.735668
0 0.799222 0.735103
0 0.788357 0.733791
0.693095 0.693095 0.693095
1 0.40856 0.632395
0 1 0.275425
0 1 0.273381
0 1 0.267674
0 1 0.238834
1 1 0.152529
0.0581064 0 1
0.0581064 0 1
0.0581064 0 1
0.775631 0 1
1 0 1
0.0581064 0 1
0.0581064 0 1
0.0581064 0 1
0.766171 0 1
1 0 1
0.0581064 0 1
0.0581064 0 1
0.0581064 0 1
0.739254 0 1
1 0 1
0 0.376608 1
0 0.369009 1
0 0.345937 1
0.630915 0.206317 1
1 0 1
0 1 1
0 1 1
0 1 1
0 1 1
1 1 1
