scripts/05_editing/0500_uxp/LUTs/01_bright_scene.cube
TITLE "Generated by Resolve"
LUT_3D_SIZE 9
0 0 0
0 0 0
0.0996414 0.00173953 0
0.206958 0.00408942 0
0.354345 0.00738537 0
0.55726 0.0117647 0
0.841611 0.0179599 0
1 0.0234684 0
1 0.0234684 0
0 0 0
0 0 0
0.0771954 0.00132753 0
0.193912 0.00399786 0
0.346242 0.00714122 0
0.5523 0.0117037 0
0.838346 0.0179294 0
1 0.0234684 0
1 0.0234684 0
0 0.0892195 0
0 0.0804913 0
0.0474403 0.0641947 0
0.179553 0.0469673 0.00408942
0.335042 0.0134737 0
0.544793 0.0116274 0
0.833783 0.0179751 0
1 0.0234684 0
1 0.0234684 0
0 0.208194 0
0 0.202655 0
0 0.194553 0
0.153246 0.170413 0
0.341543 0.138308 0.0140993
0.537026 0.0720226 0
0.826459 0.0177768 0
1 0.0234684 0
1 0.0234684 0
0 0.368185 0
0 0.365118 0
0 0.360021 0
0 0.350332 0
0.29868 0.31342 0
0.547326 0.273014 0.00436408
0.825315 0.183551 0.00234989
1 0.0234684 0
1 0.0234684 0
0 0.587076 0
0 0.585 0
0 0.581933 0
0 0.577188 0
0.0721904 0.557397 0
0.492576 0.506889 0
0.834623 0.452979 0
1 0.324163 0.0406348
1 0.0234684 0
0 0.892424 0
0 0.891081 0
0 0.889067 0
0 0.886015 0
0 0.879362 0
0.190143 0.845762 0
0.760494 0.775799 0
1 0.701869 0
1 0.527626 0.0385138
0 1 0
0 1 0
0 1 0
0 1 0
0 1 0
0 1 0
0.366323 1 0
1 1 0
1 1 0
0 1 0
0 1 0
0 1 0
0 1 0
0 1 0
0 1 0
0 1 0
0.708446 1 0
1 1 0
0 0 0
0 0 0
0.0961013 0.00166323 0
0.204837 0.00404364 0
0.353017 0.00735485 0
0.556466 0.0117189 0
0.841031 0.0179446 0
1 0.0234684 0
1 0.0234684 0
0 0 0
0 0 0
0.0734417 0.00125124 0
0.191836 0.00389105 0
0.344884 0.00712596 0
0.551522 0.0117342 0
0.837812 0.0179446 0
1 0.0234684 0
1 0.0234684 0
0 0.0776989 0
0 0.0690166 0
0.0443122 0.0529946 0
0.173816 0.037583 0.000106813
0.332784 0.00698863 0
0.543923 0.0116121 0
0.833204 0.0179751 0
1 0.0234684 0
1 0.0234684 0
0 0.200809 0
0 0.195361 0
0 0.186786 0
0.150423 0.162783 0
0.338552 0.12987 0.0146792
0.535119 0.0614481 0
0.825879 0.0177615 0
1 0.0234684 0
1 0.0234684 0
0 0.363943 0
0 0.36051 0
0 0.355566 0
0 0.345922 0
0.296757 0.308705 0
0.547463 0.267506 0.00712596
0.823316 0.176822 0.000564584
1 0.0234684 0
1 0.0234684 0
0 0.584375 0
0 0.582223 0
0 0.579095 0
0 0.574228 0
0.068574 0.554955 0
0.491508 0.503883 0
0.833524 0.44976 0
1 0.320562 0.0391241
1 0.0234684 0
0 0.890623 0
0 0.88922 0
0 0.887144 0
0 0.884337 0
0 0.877424 0
0.188006 0.843961 0
0.759793 0.773846 0
1 0.699947 0
1 0.524926 0.0394751
0 1 0
0 1 0
0 1 0
0 1 0
0 1 0
0 1 0
0.364767 1 0
1 1 0
1 1 0
0 1 0
0 1 0
0 1 0
0 1 0
0 1 0
0 1 0
0 1 0
0.707546 1 0
1 1 0
0.0027924 0 0.0792554
0.00273136 0 0.0768292
0.10486 0 0.0740826
0.209674 0.00146487 0.0517586
0.356146 0.00576791 0.0369421
0.558709 0.0103914 0.0120394
0.840238 0.0179294 0
1 0.0234684 0
1 0.0234684 0
0.00239567 0 0.068452
0.00230411 0 0.065919
0.0787976 0 0.0650034
0.194522 0.00166323 0.0423285
0.34696 0.00579843 0.0283818
0.552926 0.0103914 0.00361639
0.837049 0.0179751 0
1 0.0234684 0
1 0.0234684 0
0 0.0604562 0.0411688
0 0.0517128 0.0399786
0.0369116 0.0369116 0.0369116
0.169894 0.021973 0.0293584
0.333349 0.00605783 0.0157931
0.544762 0.0105135 0
0.832425 0.0179599 0
1 0.0234684 0
1 0.0234684 0
0 0.189731 0
0 0.183993 0
0 0.175113 0
0.145708 0.150896 0
0.333501 0.117372 0.0188296
0.533043 0.0459907 0
0.825101 0.0177462 0
1 0.0234684 0
1 0.0234684 0
0 0.357122 0
0 0.353872 0
0 0.348714 0
0 0.339315 0
0.294316 0.301762 0
0.547433 0.258991 0.0110628
0.820447 0.16614 0
1 0.0234684 0
1 0.0234684 0
0 0.580148 0
0 0.577935 0
0 0.574685 0
0 0.570123 0
0.0631571 0.550744 0
0.489662 0.499443 0
0.832471 0.445106 0
1 0.314809 0.0361181
1 0.0234684 0
0 0.8878 0
0 0.886412 0
0 0.884627 0
0 0.88159 0
0 0.874617 0
0.185336 0.841459 0
0.75874 0.770962 0
1 0.697154 0
1 0.520897 0.0405737
0 1 0
0 1 0
0 1 0
0 1 0
0 1 0
0 1 0
0.362829 1 0
1 1 0
1 1 0
0 1 0
0 1 0
0 1 0
0 1 0
0 1 0
0 1 0
0 1 0
0.706127 1 0
1 1 0
0.00813306 0 0.21294
0.00808728 0 0.211292
0.0914321 0 0.20264
0.226154 0 0.21619
0.382284 0 0.172854
0.573251 0.00509651 0.133211
0.85005 0.0144808 0.0831464
1 0.0212863 0
1 0.0234684 0
0.00784314 0 0.2056
0.00776684 0 0.20383
0.0727703 0 0.193942
0.209812 0 0.207797
0.372137 0 0.16434
0.566735 0.00556954 0.125414
0.845884 0.0146334 0.0741283
1 0.0234684 0
1 0.0234684 0
0 0.0296025 0.190112
0.00146487 0.0207523 0.189136
0.0375219 0.00724804 0.184237
0.183322 0 0.195209
0.357031 0 0.15201
0.556909 0.00622568 0.113924
0.839551 0.0149081 0.0611276
1 0.0234684 0
1 0.0234684 0
0 0.170977 0.142809
0 0.164904 0.141985
0 0.155413 0.14078
0.132677 0.132677 0.132677
0.31722 0.101122 0.120027
0.540902 0.0192111 0.0952468
0.830396 0.0151217 0.0421454
1 0.0234684 0
1 0.0234684 0
0 0.346807 0.0674144
0 0.343435 0.0661479
0 0.338155 0.0632181
0 0.329137 0.0582284
0.286061 0.291524 0.0615091
0.541115 0.247333 0.0828107
0.815732 0.149157 0.00859083
1 0.0234684 0
1 0.0234684 0
0 0.573617 0
0 0.571511 0
0 0.568429 0
0 0.563531 0
0.0548714 0.544793 0
0.487251 0.492943 0
0.830533 0.437644 0
1 0.306401 0.0312505
1 0.0234684 0
0 0.883864 0
0 0.882567 0
0 0.880461 0
0 0.877333 0
0 0.87068 0
0.180255 0.837522 0
0.757443 0.766903 0
1 0.692592 0
1 0.514717 0.0419318
0 1 0
0 1 0
0 1 0
0 1 0
0 1 0
0 1 0
0.359457 1 0
1 1 0
1 1 0
0 1 0
0 1 0
0 1 0
0 1 0
0 1 0
0 1 0
0 1 0
0.704265 1 0
1 1 0
0.0151217 0 0.392554
0.0150912 0 0.391592
0.0916152 0 0.380499
0.197925 0 0.383001
0.388922 0 0.404074
0.620111 0 0.351736
0.883116 0.00180056 0.276234
1 0.0141756 0.206561
1 0.0199893 0.0614328
0.0149386 0 0.388373
0.0149081 0 0.387366
0.0661021 0 0.379538
0.184466 0 0.37583
0.378668 0 0.399145
0.613962 0 0.346792
0.878752 0.00213626 0.271153
1 0.0144808 0.201175
1 0.0201572 0.0528572
0.0146639 0 0.38146
0.0146181 0 0.380377
0.0254978 0 0.377829
0.164843 0 0.365835
0.363119 0 0.391119
0.604562 0 0.338796
0.872251 0.00256352 0.263813
1 0.0149081 0.193271
1 0.0206455 0.0401617
0 0.11902 0.353735
0 0.110933 0.353933
0 0.0985733 0.354788
0.130922 0.0742504 0.34052
0.337118 0.0311894 0.365652
0.590555 0 0.327428
0.862608 0.00349432 0.252781
1 0.0155032 0.181247
1 0.0209201 0.0213474
0 0.321019 0.285435
0 0.317235 0.28481
0 0.311742 0.284047
0 0.303029 0.282979
0.267582 0.267582 0.267582
0.514504 0.22829 0.251209
0.828061 0.0968795 0.220279
1 0.0170901 0.152621
1 0.0234836 0
0 0.558846 0.186496
0 0.556573 0.185504
0 0.553292 0.18381
0 0.548211 0.181567
0.0224002 0.530892 0.173434
0.471214 0.479255 0.177508
0.823301 0.419333 0.205936
1 0.29398 0.0952468
1 0.0234684 0
0 0.874662 0
0 0.873304 0
0 0.871199 0
0 0.868025 0
0 0.861234 0
0.166583 0.829175 0
0.754025 0.757458 0
1 0.682704 0
1 0.501152 0.0455024
0 1 0
0 1 0
0 1 0
0 1 0
0 1 0
0 1 0
0.352132 1 0
1 1 0
1 1 0
0 1 0
0 1 0
0 1 0
0 1 0
0 1 0
0 1 0
0 1 0
0.699626 1 0
1 1 0
0.024979 0 0.635828
0.0249638 0 0.635294
0.0574044 0 0.630579
0.204807 0 0.611368
0.345907 0 0.626886
0.612268 0 0.656397
0.947463 0 0.592706
1 0 0.489525
1 0 0.405798
0.0248722 0 0.633204
0.0248569 0 0.632609
0.0292058 0 0.631327
0.189471 0 0.610147
0.337102 0 0.622583
0.605783 0 0.65359
0.943648 0 0.589349
1 0 0.486122
1 0 0.401785
0.0247044 0 0.629389
0.0246891 0 0.628733
0.0246433 0 0.627802
0.162509 0 0.608698
0.323674 0 0.615747
0.596124 0 0.648676
0.938018 0 0.585153
1 0 0.480461
1 0 0.396109
0.0233005 0 0.622461
0.0244144 0 0.622354
0.0243839 0 0.621561
0.11017 0 0.609277
0.303532 0 0.605875
0.581277 0 0.641306
0.929213 0 0.577691
1 0 0.472526
1 6.10361e-05 0.387472
0 0.254612 0.566552
0 0.249943 0.56672
0 0.242969 0.567544
0 0.232136 0.568048
0.265904 0.194232 0.54377
0.541512 0.132036 0.578088
0.909224 0 0.561425
1 0 0.454017
1 0.00187686 0.367773
0 0.522789 0.474357
0 0.520363 0.474052
0 0.517113 0.47364
0 0.51165 0.473243
0 0.496529 0.469078
0.44654 0.44654 0.44654
0.788205 0.393469 0.423896
1 0.230991 0.384756
1 0.00573739 0.323507
0 0.853361 0.338033
0 0.851972 0.337514
0 0.849805 0.336629
0 0.846662 0.335317
0 0.839628 0.332555
0.121553 0.809628 0.317937
0.727016 0.738598 0.324071
1 0.658076 0.363851
1 0.484565 0.263737
0 1 0.051606
0 1 0.0501259
0 1 0.0480049
0 1 0.0450446
0 1 0.037705
0 1 0.0218051
0.324376 1 0
1 1 0
1 1 0
0 1 0
0 1 0
0 1 0
0 1 0
0 1 0
0 1 0
0 1 0
0.689647 1 0
1 1 0
0.0382696 0 0.973495
0.0382544 0 0.973236
0.0382391 0 0.972808
0.152178 0 0.957916
0.35436 0 0.935561
0.549935 0 0.965133
0.924971 0 1
1 0 0.957122
1 0 0.899428
0.0382086 0 0.972091
0.0381933 0 0.971725
0.0381781 0 0.971252
0.125002 0 0.959854
0.345983 0 0.933867
0.544076 0 0.962554
0.920668 0 1
1 0 0.954711
1 0 0.896773
0.038117 0 0.969741
0.0381018 0 0.969345
0.0380865 0 0.96878
0.0838941 0 0.96257
0.332982 0 0.931914
0.535241 0 0.958312
0.914794 0 1
1 0 0.951019
1 0 0.892683
0.0379644 0 0.965927
0.0379492 0 0.965621
0.0379187 0 0.965179
0.0378882 0 0.964324
0.311391 0 0.929198
0.522042 0 0.951812
0.905531 0 0.997436
1 0 0.945571
1 0 0.886976
0.0216373 0.0463874 0.948959
0.0236057 0.0377813 0.949584
0.026215 0.0249485 0.950332
0.0301976 0.00563058 0.951629
0.250843 0 0.92607
0.492287 0 0.937285
0.884047 0 0.986755
1 0 0.933059
1 0 0.87332
0 0.432898 0.861891
0 0.429953 0.862242
0 0.425864 0.862837
0 0.419211 0.863386
0 0.404364 0.864622
0.444358 0.34728 0.827512
0.825223 0.265141 0.873472
1 0 0.89897
1 0 0.842664
0 0.802915 0.735668
0 0.80145 0.735561
0 0.799222 0.735103
0 0.795773 0.734661
0 0.788357 0.733791
0.0495766 0.761761 0.723552
0.693095 0.693095 0.693095
1 0.62237 0.662989
1 0.40856 0.632395
0 1 0.551171
0 1 0.550637
0 1 0.549874
0 1 0.548745
0 1 0.546792
0 1 0.543008
0.265705 1 0.519188
1 1 0.529351
1 0.986709 0.515419
0 1 0.275425
0 1 0.274586
0 1 0.273381
0 1 0.271534
0 1 0.267674
0 1 0.258564
0 1 0.238834
0.636011 1 0.187793
1 1 0.152529
0.0565957 0 1
0.0565957 0 1
0.0565957 0 1
0.0565805 0 1
0.304936 0 1
0.556359 0 1
0.836927 0 1
1 0 1
1 0 1
0.0565805 0 1
0.0565652 0 1
0.0565652 0 1
0.0565499 0 1
0.290333 0 1
0.551705 0 1
0.832975 0 1
1 0 1
1 0 1
0.0565194 0 1
0.0565194 0 1
0.0565042 0 1
0.0564889 0 1
0.266987 0 1
0.544167 0 1
0.827253 0 1
1 0 1
1 0 1
0.0564431 0 1
0.0564279 0 1
0.0564279 0 1
0.0563973 0 1
0.226474 0 1
0.532586 0 1
0.818616 0 1
1 0 1
1 0 1
0.0562142 0 1
0.0562142 0 1
0.0561837 0 1
0.0561685 0 1
0.100572 0 1
0.504448 0 1
0.799115 0 1
1 0 1
1 0 1
0.00831617 0.170535 1
0.00962844 0.165316 1
0.011368 0.15697 1
0.014435 0.144213 1
0.0215152 0.113664 1
0.428763 0.0237888 1
0.756024 0 1
1 0 1
1 0 1
0 0.683406 1
0 0.68162 1
0 0.678843 1
0 0.674708 1
0 0.66566 1
0 0.645563 1
0.690608 0.560739 1
1 0.453132 1
1 0.125292 1
0 1 1
0 1 1
0 1 1
0 1 1
0 1 1
0 1 1
0.177295 1 1
1 1 1
1 0.922301 1
0 1 0.937926
0 1 0.93756
0 1 0.937011
0 1 0.936339
0 1 0.934508
0 1 0.930755
0 1 0.922683
0.550088 1 0.875486
1 1 0.855741
0.0581064 0 1
0.0581064 0 1
0.0581064 0 1
0.0581064 0 1
0.0581064 0 1
0.470192 0 1
0.775631 0 1
1 0 1
1 0 1
0.0581064 0 1
0.0581064 0 1
0.0581064 0 1
0.0581064 0 1
0.0581064 0 1
0.462928 0 1
0.771939 0 1
1 0 1
1 0 1
0.0581064 0 1
0.0581064 0 1
0.0581064 0 1
0.0581064 0 1
0.0581064 0 1
0.451926 0 1
0.766171 0 1
1 0 1
1 0 1
0.0581064 0 1
0.0581064 0 1
0.0581064 0 1
0.0581064 0 1
0.0581064 0 1
0.433921 0 1
0.758022 0 1
1 0 1
1 0 1
0.0581064 0 1
0.0581064 0 1
0.0581064 0 1
0.0581064 0 1
0.0581064 0 1
0.388815 0 1
0.739254 0 1
1 0 1
1 0 1
0.0581064 0 1
0.0581064 0 1
0.0581064 0 1
0.0581064 0 1
0.0581064 0 1
0.245701 0 1
0.698711 0 1
1 0 1
1 0 1
0 0.376608 1
0 0.373419 1
0 0.369009 1
0 0.361822 1
0 0.345937 1
0 0.309346 1
0.630915 0.206317 1
1 0 1
1 0 1
0 1 1
0 1 1
0 1 1
0 1 1
0 1 1
0 1 1
0 0.98175 1
0.997345 0.871092 1
1 0.738643 1
0 1 1
0 1 1
0 1 1
0 1 1
0 1 1
0 1 1
0 1 1
0.439933 1 1
1 1 1
