scripts/05_editing/0500_uxp/LUTs/02_normal_scene.cube
TITLE "Generated by Resolve"
LUT_3D_SIZE 33
0.0122835 0.0122835 0.0122835
0.0122835 0.0122835 0.0122835
0.0122835 0.0122835 0.0122835
0.0158389 0.0123751 0.0122835
0.0354925 0.0130465 0.0123445
0.0574197 0.0139467 0.0122225
0.0807813 0.0145571 0.0117189
0.102617 0.0150607 0.0111391
0.12932 0.0158541 0.0106661
0.160815 0.0164187 0.00972
0.196475 0.0168612 0.00848402
0.236378 0.0170748 0.00686656
0.281376 0.0167544 0.00451667
0.332403 0.0162814 0.00181582
0.389471 0.0154421 0
0.451728 0.0141909 0
0.51783 0.0130007 0
0.587884 0.0119173 0
0.658701 0.0108339 0
0.72694 0.0103304 0
0.791241 0.0106355 0
0.849622 0.0118257 0
0.901396 0.0130922 0
0.913924 0.0135653 0
0.913924 0.0135653 0
0.913924 0.0135653 0
0.913924 0.0135653 0
0.913924 0.0135653 0
0.913924 0.0135653 0
0.913924 0.0135653 0
0.913909 0.01355 0
0.913909 0.01355 0
0.913893 0.0135348 0
0.0122988 0.0122988 0.0122988
0.0122988 0.0122988 0.0122988
0.0122835 0.0122835 0.0122835
0.0131991 0.0129854 0.0129549
0.0318914 0.0131075 0.0125734
0.0536507 0.0137942 0.0122683
0.0771954 0.014435 0.0117647
0.0997482 0.0149996 0.0112306
0.127855 0.0158083 0.0106966
0.160403 0.0164187 0.00973526
0.197101 0.0168765 0.00846876
0.238071 0.0170901 0.00680552
0.284184 0.0167544 0.0043946
0.3364 0.0162509 0.00161746
0.394598 0.0153201 0
0.45803 0.0141146 0
0.525109 0.0128786 0
0.595575 0.0115969 0
0.667582 0.0107881 0
0.736004 0.0104067 0
0.799908 0.0108034 0
0.857954 0.011841 0
0.909468 0.0133974 0
0.913924 0.0135653 0
0.913924 0.0135653 0
0.913924 0.0135653 0
0.913924 0.0135653 0
0.913924 0.0135653 0
0.913924 0.0135653 0
0.913924 0.0135653 0
0.913924 0.0135653 0
0.913909 0.01355 0
0.913909 0.01355 0
0.0122988 0.0122988 0.0122988
0.0122835 0.0122835 0.0122835
0.0122835 0.0122835 0.0122835
0.0122835 0.0122835 0.0122835
0.0261234 0.0128328 0.0125887
0.047776 0.0135653 0.012314
0.0712139 0.0142214 0.011841
0.0950637 0.0150454 0.0115206
0.124285 0.0157168 0.0107576
0.157794 0.0163577 0.00979629
0.195392 0.016846 0.00852979
0.237232 0.0170901 0.00683604
0.283925 0.0167544 0.0043946
0.337407 0.0162356 0.00155642
0.396521 0.015198 0
0.46067 0.0140841 0
0.529183 0.0128328 0
0.60061 0.0115511 0
0.672755 0.0107271 0
0.742092 0.0104677 0
0.806119 0.0109407 0
0.863737 0.0120394 0
0.913924 0.0135653 0
0.913939 0.0135653 0
0.913939 0.0135805 0
0.913939 0.0135805 0
0.913939 0.0135805 0
0.913939 0.0135805 0
0.913939 0.0135805 0
0.913939 0.0135805 0
0.913924 0.0135653 0
0.913924 0.0135653 0
0.913909 0.01355 0
0.0130159 0.0130159 0.0130159
0.0122988 0.0122988 0.0122988
0.0122835 0.0122835 0.0122835
0.0122835 0.0122835 0.0122835
0.0198672 0.0125124 0.0125124
0.0414282 0.0133059 0.0123445
0.0650339 0.0141604 0.0120699
0.0895705 0.0148623 0.0115969
0.12018 0.0155947 0.0108492
0.154772 0.0162814 0.00987259
0.193103 0.0168154 0.00859083
0.236118 0.0170901 0.00688182
0.283803 0.0167544 0.00440986
0.338155 0.0162356 0.0015259
0.398566 0.0150912 0
0.463859 0.0140383 0
0.533028 0.0127871 0
0.605966 0.01149 0
0.678737 0.0105135 0
0.748058 0.0103304 0
0.81239 0.0110781 0
0.870329 0.0122683 0
0.913939 0.0135805 0
0.913939 0.0135805 0
0.913939 0.0135805 0
0.913939 0.0135805 0
0.913939 0.0135805 0
0.913939 0.0135805 0
0.913939 0.0135805 0
0.913939 0.0135805 0
0.913939 0.0135805 0
0.913924 0.0135653 0
0.913924 0.0135653 0
0.0120089 0.0316472 0.0120089
0.0120851 0.030396 0.0120851
0.0123293 0.0286107 0.0123293
0.0123903 0.0262303 0.0124514
0.0174105 0.0235142 0.0133669
0.0373846 0.021973 0.0154269
0.0589151 0.0201114 0.0130465
0.083711 0.0173495 0.0121462
0.115572 0.0154574 0.0109255
0.151385 0.0161898 0.00994888
0.190784 0.0167849 0.00866712
0.23476 0.0170748 0.0069276
0.283665 0.0167544 0.00440986
0.339071 0.0162203 0.00148013
0.400458 0.0150759 0
0.467475 0.0139925 0
0.537911 0.012726 0
0.611414 0.011429 0
0.684962 0.0104982 0
0.755123 0.0103456 0
0.819638 0.0112001 0
0.877165 0.0124819 0
0.913939 0.0135805 0
0.913939 0.0135805 0
0.913939 0.0135805 0
0.913939 0.0135805 0
0.913939 0.0135805 0
0.913954 0.0135805 0
0.913939 0.0135805 0
0.913939 0.0135805 0
0.913939 0.0135805 0
0.913939 0.0135805 0
0.913924 0.0135653 0
0.0093843 0.0532387 0.00956741
0.00962844 0.0521553 0.00981155
0.00996414 0.0502327 0.0101472
0.010193 0.0480659 0.0103609
0.0104677 0.0454719 0.0106203
0.0335699 0.0419776 0.0127718
0.0567941 0.0394293 0.0153353
0.0817884 0.0365759 0.018204
0.112078 0.0332799 0.0139162
0.148211 0.0271 0.0113375
0.188434 0.0184634 0.00944533
0.233097 0.0170596 0.00700389
0.28307 0.0167544 0.00444038
0.340093 0.0162203 0.00143435
0.402808 0.0150454 0
0.470665 0.013962 0
0.542443 0.0126802 0
0.617517 0.011368 0
0.69218 0.0104982 0
0.762234 0.0104219 0
0.826566 0.0111849 0
0.884123 0.012726 0
0.913939 0.0135805 0
0.913939 0.0135805 0
0.913939 0.0135805 0
0.913939 0.0135805 0
0.913939 0.0135805 0
0.913939 0.0135805 0
0.913939 0.0135805 0
0.913939 0.0135805 0
0.913939 0.0135805 0
0.913939 0.0135805 0
0.913924 0.0135653 0
0.00627146 0.0760967 0.00656138
0.00653086 0.075349 0.00682078
0.00672923 0.0734569 0.00701915
0.00698863 0.0713207 0.00726329
0.00726329 0.0690623 0.0075227
0.0208286 0.0658579 0.00860609
0.051194 0.0615396 0.0114137
0.0781109 0.0581064 0.0149233
0.113146 0.0534066 0.0201114
0.147646 0.0483711 0.0170138
0.186557 0.0409094 0.0120546
0.231678 0.0297093 0.00891127
0.282246 0.0167544 0.00447089
0.340276 0.0162051 0.00141909
0.404471 0.0150149 0
0.473732 0.0139162 0
0.547219 0.0126192 0
0.623255 0.0113222 0
0.698512 0.0104829 0
0.768994 0.0105135 0
0.83331 0.011368 0
0.890288 0.0126955 0
0.913924 0.0135653 0
0.913924 0.0135653 0
0.913924 0.0135653 0
0.913924 0.0135653 0
0.913924 0.0135653 0
0.913939 0.0135805 0
0.913924 0.0135653 0
0.913939 0.0135805 0
0.913924 0.0135653 0
0.913924 0.0135653 0
0.913924 0.0135653 0
0.00256352 0.0999466 0.00297551
0.00265507 0.0991379 0.00306706
0.00306706 0.0979324 0.0034638
0.00331121 0.0961471 0.00370794
0.00357061 0.0940566 0.00395209
0.00582895 0.0917067 0.0043183
0.0371405 0.0875563 0.00604257
0.0699321 0.0822614 0.00984207
0.109377 0.0771801 0.0146944
0.14995 0.0702373 0.0215152
0.189731 0.0628367 0.020676
0.231388 0.0534218 0.0120699
0.28217 0.0389105 0.00749218
0.340688 0.019379 0.00265507
0.405905 0.0149996 0
0.476768 0.0138247 0
0.551293 0.0125734 0
0.628244 0.0112764 0
0.704005 0.0104982 0
0.774548 0.010605 0
0.838636 0.0115206 0
0.895415 0.0128786 0
0.913924 0.0135653 0
0.913924 0.0135653 0
0.913924 0.0135653 0
0.913939 0.0135653 0
0.913939 0.0135653 0
0.913924 0.0135653 0
0.913939 0.0135805 0
0.913939 0.0135805 0
0.913939 0.0135805 0
0.913939 0.0135805 0
0.913924 0.0135653 0
0 0.127672 0
0 0.127916 0
0 0.127337 0
0 0.12665 0
0 0.125643 0
0 0.124208 0
0.0140536 0.121767 0
0.0484932 0.117769 0.00144961
0.0986343 0.111192 0.00732433
0.145754 0.104387 0.0133211
0.190539 0.0963607 0.0202487
0.238224 0.0852216 0.024506
0.283742 0.0729839 0.0140688
0.340368 0.0541848 0.00593576
0.406043 0.0287327 0
0.476768 0.0138247 0
0.55227 0.0125582 0
0.629999 0.0112764 0
0.706249 0.0104982 0
0.776974 0.0106355 0
0.841276 0.0115969 0
0.89781 0.0129702 0
0.913939 0.0135805 0
0.913939 0.0135805 0
0.913939 0.0135805 0
0.913939 0.0135805 0
0.913939 0.0135805 0
0.913939 0.0135805 0
0.913939 0.0135805 0
0.913939 0.0135805 0
0.913939 0.0135805 0
0.913939 0.0135805 0
0.913939 0.0135805 0
0 0.160098 0
0 0.16112 0
0 0.161593 0
0 0.161669 0
0 0.161517 0
0 0.160998 0
0 0.160082 0
0.0176699 0.157794 0
0.0693675 0.151995 0
0.131868 0.143847 0.00408942
0.185779 0.136156 0.0109255
0.233845 0.128466 0.0153506
0.2934 0.11487 0.025864
0.34934 0.099794 0.0220035
0.406332 0.0785382 0.00628672
0.475212 0.0470893 0
0.549554 0.0125887 0
0.628016 0.0112917 0
0.70486 0.0104982 0
0.775967 0.0106203 0
0.840375 0.0115663 0
0.897063 0.0129549 0
0.913939 0.0135805 0
0.913939 0.0135805 0
0.913939 0.0135805 0
0.913939 0.0135805 0
0.913939 0.0135805 0
0.913939 0.0135805 0
0.913939 0.0135805 0
0.913939 0.0135805 0
0.913954 0.0135805 0
0.913939 0.0135805 0
0.913939 0.0135805 0
0 0.19707 0
0 0.1991 0
0 0.200244 0
0 0.201205 0
0 0.201984 0
0 0.202747 0
0 0.202716 0
0 0.202106 0
0.0285649 0.197879 0
0.100999 0.190051 0
0.169207 0.18088 0
0.231067 0.172274 0.00770581
0.286366 0.164019 0.0122377
0.355657 0.147967 0.0251316
0.421241 0.130449 0.0269322
0.480705 0.110262 0.0105135
0.549844 0.0759747 0
0.62536 0.0299535 0
0.70135 0.0104982 0
0.773159 0.0105745 0
0.838071 0.0115053 0
0.894789 0.0128634 0
0.913939 0.0135805 0
0.913939 0.0135805 0
0.913939 0.0135805 0
0.913939 0.0135805 0
0.913939 0.0135805 0
0.913939 0.0135805 0
0.913939 0.0135805 0
0.913939 0.0135805 0
0.913939 0.0135805 0
0.913939 0.0135805 0
0.913939 0.0135805 0
0 0.239109 0
0 0.2421 0
0 0.244343 0
0 0.246311 0
0 0.248219 0
0 0.249638 0
0 0.25034 0
0 0.250401 0
0 0.248936 0
0.0495003 0.242329 0
0.135821 0.233127 0
0.211688 0.223377 0
0.282429 0.213199 0.00378424
0.346502 0.203265 0.00863661
0.423651 0.18613 0.0224613
0.4972 0.166567 0.0294194
0.565225 0.144549 0.0215763
0.629694 0.115633 0.000885023
0.700725 0.0682994 0
0.770245 0.0138247 0
0.834394 0.0113985 0
0.891569 0.0127565 0
0.913939 0.0135805 0
0.913939 0.0135805 0
0.913939 0.0135805 0
0.913939 0.0135805 0
0.913939 0.0135805 0
0.913939 0.0135805 0
0.913939 0.0135805 0
0.913939 0.0135805 0
0.913939 0.0135805 0
0.913939 0.0135805 0
0.913939 0.0135805 0
0 0.287602 0
0 0.291829 0
0 0.295003 0
0 0.298253 0
0 0.300557 0
0 0.302602 0
0 0.303975 0
0 0.304616 0
0 0.303777 0
0 0.300587 0
0.0799115 0.292531 0
0.174502 0.282353 0
0.259403 0.271275 0
0.340734 0.259266 0
0.41384 0.24802 0.00509651
0.493187 0.231418 0.0164797
0.578088 0.208865 0.0311131
0.65301 0.185794 0.031342
0.71426 0.161273 0.0116732
0.776394 0.126986 0
0.835721 0.0778821 0
0.889113 0.0230106 0
0.913924 0.0135653 0
0.913924 0.0135653 0
0.913939 0.0135805 0
0.913924 0.0135653 0
0.913924 0.0135653 0
0.913939 0.0135805 0
0.913924 0.0135653 0
0.913939 0.0135805 0
0.913939 0.0135805 0
0.913939 0.0135805 0
0.913939 0.0135805 0
0 0.343633 0
0 0.348684 0
0 0.352789 0
0 0.356939 0
0 0.360021 0
0 0.362753 0
0 0.364721 0
0 0.365835 0
0 0.365423 0
0 0.363363 0
0 0.358755 0
0.112764 0.349874 0
0.216922 0.338186 0
0.313161 0.325383 0
0.405386 0.312001 0
0.486412 0.299855 0.00122072
0.567025 0.284596 0.010132
0.661463 0.260151 0.0318456
0.737713 0.237888 0.0381018
0.802472 0.215457 0.0341497
0.852171 0.192782 0.0140536
0.900694 0.16318 0.00134279
0.926848 0.127626 0
0.921187 0.0859998 0
0.917189 0.0466011 0
0.914748 0.0153353 0
0.913939 0.0135805 0
0.913939 0.0135805 0
0.913924 0.0135653 0
0.913939 0.0135805 0
0.913939 0.0135805 0
0.913939 0.0135805 0
0.913939 0.0135805 0
0 0.406775 0
0 0.413031 0
0 0.418143 0
0 0.422644 0
0 0.426612 0
0 0.429694 0
0 0.432135 0
0 0.433722 0
0 0.433845 0
0 0.432517 0
0 0.430304 0
0.016495 0.424399 0
0.149722 0.414389 0
0.266361 0.40119 0
0.374411 0.386923 0
0.475227 0.372671 0
0.56405 0.359197 0
0.645869 0.345022 0.00535592
0.740001 0.322255 0.0287175
0.816007 0.301869 0.0426184
0.879057 0.282338 0.0479438
0.930724 0.263355 0.0455787
0.959823 0.245594 0.0328527
0.950286 0.225437 0.0213169
0.943618 0.206424 0.0132753
0.939055 0.18967 0.0077821
0.935683 0.17557 0.0037232
0.933272 0.164202 0.000808728
0.931731 0.156146 0
0.930648 0.150546 0
0.930083 0.147066 0
0.929992 0.146548 0
0.929915 0.146181 0
0 0.476753 0
0 0.48426 0
0 0.489662 0
0 0.494759 0
0 0.499382 0
0 0.50312 0
0 0.506233 0
0 0.5084 0
0 0.509041 0
0 0.508064 0
0 0.506645 0
0 0.50367 0
0.052781 0.496208 0
0.195621 0.485008 0
0.324834 0.470024 0
0.442054 0.454719 0
0.549767 0.439719 0
0.64509 0.425208 0
0.724712 0.412802 0.00132753
0.804181 0.396567 0.0161593
0.884581 0.375952 0.0418097
0.94403 0.359869 0.0529335
0.992782 0.345037 0.0583505
0.989212 0.328969 0.0576181
0.985855 0.315206 0.0563821
0.983093 0.304265 0.0550698
0.980514 0.295613 0.0534066
0.978576 0.289265 0.0520485
0.977096 0.284993 0.0508583
0.976394 0.282643 0.050309
0.97586 0.281163 0.0498665
0.975814 0.281025 0.0498207
0.976165 0.282017 0.0501106
0 0.552865 0
0 0.560815 0
0 0.567361 0
0 0.572931 0
0 0.578241 0
0 0.582696 0
0 0.586236 0
0 0.588907 0
0 0.590005 0
0 0.589502 0
0 0.588312 0
0 0.586252 0
0 0.58291 0
0.0971695 0.573587 0
0.250797 0.560265 0
0.390402 0.543557 0
0.514412 0.527291 0
0.6262 0.511498 0
0.723232 0.497261 0
0.797513 0.487205 0
0.865507 0.475975 0.00747692
0.933288 0.461051 0.025803
0.995575 0.445228 0.0470741
1 0.432181 0.0518807
1 0.421241 0.0536049
1 0.41265 0.0547646
1 0.406317 0.0555886
1 0.401556 0.0560616
1 0.398596 0.05626
1 0.397253 0.0565957
1 0.396521 0.0566415
1 0.396719 0.0566262
1 0.397742 0.0564736
0 0.63389 0
0 0.642466 0
0 0.649271 0
0 0.655314 0
0 0.661051 0
0 0.665797 0
0 0.66981 0
0 0.672786 0
0 0.67422 0
0 0.674113 0
0 0.673304 0
0 0.671763 0
0 0.669047 0
0 0.664302 0
0.152392 0.653117 0
0.315358 0.637324 0
0.46215 0.619104 0
0.589502 0.602655 0
0.700938 0.587503 0
0.79379 0.574807 0
0.86453 0.565866 0
0.92398 0.558145 0.00271611
0.975891 0.549737 0.0113527
1 0.540047 0.0180209
1 0.530922 0.0204471
1 0.523659 0.0227512
1 0.51809 0.0244602
1 0.514031 0.0258183
1 0.51194 0.0268559
1 0.510811 0.0272526
1 0.510445 0.0273747
1 0.510857 0.0272221
1 0.5122 0.0267338
0 0.71664 0
0 0.725231 0
0 0.732235 0
0 0.738415 0
0 0.744289 0
0 0.749157 0
0 0.753307 0
0 0.756268 0
0 0.757824 0
0 0.757946 0
0 0.757351 0
0 0.756268 0
0 0.754314 0
0 0.750805 0
0.016144 0.743511 0
0.221592 0.731258 0
0.392447 0.713161 0
0.539895 0.694896 0
0.66566 0.678813 0
0.770321 0.665583 0
0.855985 0.654139 0
0.92369 0.645457 0
0.97464 0.640375 0
1 0.634623 0.00311284
1 0.627436 0.0040589
1 0.622019 0.00495918
1 0.617899 0.00543221
1 0.614954 0.00576791
1 0.613458 0.00605783
1 0.612863 0.00628672
1 0.612696 0.00630198
1 0.613108 0.0061799
1 0.614023 0.00585946
0 0.797467 0
0 0.806394 0
0 0.813336 0
0 0.819486 0
0 0.825254 0
0 0.830091 0
0 0.834211 0
0 0.837125 0
0 0.838773 0
0 0.839063 0
0 0.838514 0
0 0.837537 0
0 0.836088 0
0 0.833051 0
0 0.828702 0
0.112688 0.819074 0
0.309789 0.803708 0
0.480034 0.784161 0
0.6224 0.766445 0
0.738872 0.751751 0
0.833158 0.739818 0
0.909392 0.730236 0
0.970672 0.722362 0
1 0.71696 0
1 0.71194 0
1 0.707546 0
1 0.704173 0
1 0.701762 0
1 0.700465 0
1 0.699962 0
1 0.699779 0
1 0.699962 0
1 0.700862 0
0 0.875471 0
0 0.883513 0
0 0.890547 0
0 0.896361 0
0 0.901839 0
0 0.906355 0
0 0.910231 0
0 0.913176 0
0 0.914778 0
0 0.915084 0
0 0.914626 0
0 0.913603 0
0 0.912077 0
0 0.909468 0
0 0.905669 0
0 0.899519 0
0.218585 0.88632 0
0.410254 0.867308 0
0.570886 0.847486 0
0.701366 0.830823 0
0.805097 0.8177 0
0.887129 0.807599 0
0.953323 0.799344 0
1 0.792645 0
1 0.787655 0
1 0.783398 0
1 0.78024 0
1 0.777905 0
1 0.776745 0
1 0.776089 0
1 0.775738 0
1 0.77586 0
1 0.776516 0
0 0.947616 0
0 0.954833 0
0 0.961089 0
0 0.966583 0
0 0.971542 0
0 0.97557 0
0 0.979034 0
0 0.981659 0
0 0.983063 0
0 0.983291 0
0 0.982834 0
0 0.981781 0
0 0.980255 0
0 0.977874 0
0 0.974258 0
0 0.969802 0
0.118441 0.95848 0
0.335683 0.940993 0
0.514641 0.919829 0
0.659571 0.901091 0
0.774044 0.886137 0
0.862654 0.875105 0
0.932616 0.866499 0
0.988998 0.859663 0
1 0.853864 0
1 0.84976 0
1 0.846754 0
1 0.844602 0
1 0.843366 0
1 0.842512 0
1 0.8421 0
1 0.842298 0
1 0.842313 0
0 1 0
0 1 0
0 1 0
0 1 0
0 1 0
0 1 0
0 1 0
0 1 0
0 1 0
0 1 0
0 1 0
0 1 0
0 1 0
0 1 0
0 1 0
0 1 0
0 1 0
0.261814 1 0
0.457389 0.982574 0
0.615564 0.962142 0
0.741176 0.94519 0
0.836988 0.93286 0
0.910948 0.923476 0
0.969635 0.916182 0
1 0.910323 0
1 0.905638 0
1 0.902708 0
1 0.90071 0
1 0.899214 0
1 0.898238 0
1 0.897688 0
1 0.897597 0
1 0.897398 0
0 1 0
0 1 0
0 1 0
0 1 0
0 1 0
0 1 0
0 1 0
0 1 0
0 1 0
0 1 0
0 1 0
0 1 0
0 1 0
0 1 0
0 1 0
0 1 0
0 1 0
0.190936 1 0
0.402045 1 0
0.572106 1 0
0.708247 0.995193 0
0.811139 0.981262 0
0.889632 0.971267 0
0.950927 0.963623 0
0.999207 0.957366 0
1 0.952331 0
1 0.949096 0
1 0.947066 0
1 0.94548 0
1 0.944579 0
1 0.943847 0
1 0.943328 0
1 0.942962 0
0 1 0
0 1 0
0 1 0
0 1 0
0 1 0
0 1 0
0 1 0
0 1 0
0 1 0
0 1 0
0 1 0
0 1 0
0 1 0
0 1 0
0 1 0
0 1 0
0 1 0
0.129091 1 0
0.358602 1 0
0.537392 1 0
0.679927 1 0
0.78819 1 0
0.870527 1 0
0.933394 1 0
0.983078 0.996048 0
1 0.991043 0
1 0.987091 0
1 0.984756 0
1 0.9832 0
1 0.982345 0
1 0.981384 0
1 0.980713 0
1 0.980209 0
0 1 0
0 1 0
0 1 0
0 1 0
0 1 0
0 1 0
0 1 0
0 1 0
0 1 0
0 1 0
0 1 0
0 1 0
0 1 0
0 1 0
0 1 0
0 1 0
0 1 0
0.0702678 1 0
0.322576 1 0
0.51043 1 0
0.658366 1 0
0.771481 1 0
0.855467 1 0
0.920104 1 0
0.970306 0.99968 0
1 0.998077 0
1 0.997086 0
1 0.996689 0
1 0.996689 0
1 0.996689 0
1 0.996689 0
1 0.996674 0
1 0.996674 0
0 1 0
0 1 0
0 1 0
0 1 0
0 1 0
0 1 0
0 1 0
0 1 0
0 1 0
0 1 0
0 1 0
0 1 0
0 1 0
0 1 0
0 1 0
0 1 0
0 1 0
0.0143893 1 0
0.294118 1 0
0.489006 1 0
0.642069 1 0
0.757671 1 0
0.843656 1 0
0.909468 1 0
0.960189 1 0
1 0.998657 0
1 0.997467 0
1 0.996689 0
1 0.996689 0
1 0.996689 0
1 0.996689 0
1 0.996674 0
1 0.996674 0
0 1 0
0 1 0
0 1 0
0 1 0
0 1 0
0 1 0
0 1 0
0 1 0
0 1 0
