scripts/05_editing/0500_uxp/LUTs/02_normal_scene.cube
TITLE "Generated by Resolve"
LUT_3D_SIZE 9
0.0122835 0.0122835 0.0122835
0.0354925 0.0130465 0.0123445
0.12932 0.0158541 0.0106661
0.281376 0.0167544 0.00451667
0.51783 0.0130007 0
0.791241 0.0106355 0
0.913924 0.0135653 0
0.913924 0.0135653 0
0.913893 0.0135348 0
0.0120089 0.0316472 0.0120089
0.0174105 0.0235142 0.0133669
0.115572 0.0154574 0.0109255
0.283665 0.0167544 0.00440986
0.537911 0.012726 0
0.819638 0.0112001 0
0.913939 0.0135805 0
0.913939 0.0135805 0
0.913924 0.0135653 0
0 0.127672 0
0 0.125643 0
0.0986343 0.111192 0.00732433
0.283742 0.0729839 0.0140688
0.55227 0.0125582 0
0.841276 0.0115969 0
0.913939 0.0135805 0
0.913939 0.0135805 0
0.913939 0.0135805 0
0 0.287602 0
0 0.300557 0
0 0.303777 0
0.259403 0.271275 0
0.578088 0.208865 0.0311131
0.835721 0.0778821 0
0.913939 0.0135805 0
0.913924 0.0135653 0
0.913939 0.0135805 0
0 0.552865 0
0 0.578241 0
0 0.590005 0
0 0.58291 0
0.514412 0.527291 0
0.865507 0.475975 0.00747692
1 0.421241 0.0536049
1 0.398596 0.05626
1 0.397742 0.0564736
0 0.875471 0
0 0.901839 0
0 0.914778 0
0 0.912077 0
0.218585 0.88632 0
0.805097 0.8177 0
1 0.787655 0
1 0.776745 0
1 0.776516 0
0 1 0
0 1 0
0 1 0
0 1 0
0 1 0
0.679927 1 0
0.983078 0.996048 0
1 0.9832 0
1 0.980209 0
0 1 0
0 1 0
0 1 0
0 1 0
0 1 0
0.618265 1 0
0.945708 1 0
1 0.996689 0
1 0.996674 0
0 1 0
0 1 0
0 1 0
0 1 0
0 1 0
0.593713 1 0
0.930266 1 0
1 0.99678 0
1 0.996674 0
0.0129397 0.0122225 0.0222782
0.0326696 0.0127718 0.0195773
0.127062 0.0155947 0.0128176
0.280247 0.0167544 0.00457771
0.518135 0.0129854 0
0.792706 0.0106661 0
0.913939 0.0135805 0
0.913939 0.0135805 0
0.913939 0.0135805 0
0.0129091 0.019501 0.0144656
0.0131075 0.0131075 0.0131075
0.113542 0.0154116 0.0109712
0.28452 0.0167697 0.0043946
0.541527 0.0126955 0
0.824002 0.0111391 0
0.913954 0.0135958 0
0.913954 0.0135958 0
0.913939 0.0135805 0
0 0.119371 0.000122072
0 0.117906 0.00030518
0.0973373 0.10338 0.00866712
0.285359 0.0646982 0.0114137
0.559335 0.012253 0
0.847303 0.01178 0
0.913939 0.0135805 0
0.913939 0.0135805 0
0.913939 0.0135805 0
0 0.287755 0
0 0.301198 0
0 0.305104 0
0.263416 0.271778 0
0.585611 0.208576 0.0315557
0.841428 0.0750591 0
0.913939 0.0135805 0
0.913939 0.0135805 0
0.913939 0.0135805 0
0 0.558846 0
0 0.584833 0
0 0.597009 0
0 0.589731 0
0.522652 0.533516 0
0.87216 0.482383 0.00729381
1 0.429618 0.0525673
1 0.408103 0.0553597
1 0.407248 0.0555428
0 0.882902 0
0 0.908904 0
0 0.92195 0
0 0.9187 0
0.230213 0.892302 0
0.812284 0.823682 0
1 0.793408 0
1 0.783185 0
1 0.782467 0
0 1 0
0 1 0
0 1 0
0 1 0
0 1 0
0.689952 1 0
0.985977 0.998062 0
1 0.985321 0
1 0.982406 0
0 1 0
0 1 0
0 1 0
0 1 0
0 1 0
0.630137 1 0
0.949203 1 0
1 0.996674 0
1 0.996674 0
0 1 0
0 1 0
0 1 0
0 1 0
0 1 0
0.6056 1 0
0.933928 1 0
1 0.996765 0
1 0.996689 0
0.0161288 0.0081178 0.128923
0.0354467 0.00831617 0.123323
0.138399 0.00801099 0.12401
0.286702 0.01355 0.0779431
0.518868 0.0115816 0.0314488
0.790372 0.0106355 0
0.913939 0.0135805 0
0.913939 0.0135805 0
0.913939 0.0135805 0
0.0157778 0.00839246 0.120211
0.0157778 0.0083772 0.120455
0.123003 0.00849927 0.122042
0.29279 0.0135805 0.0778973
0.545632 0.0110628 0.0306401
0.82504 0.0111696 0
0.913954 0.0135958 0
0.913939 0.0135805 0
0.913939 0.0135805 0
0 0.103426 0.0846265
0 0.102144 0.0904707
0.0888533 0.0888533 0.0888533
0.286366 0.0482338 0.0711223
0.5664 0.0107881 0.025742
0.849958 0.0118563 0
0.913939 0.0135805 0
0.913939 0.0135805 0
0.913939 0.0135805 0
0 0.28307 0
0 0.296666 0
0 0.300511 0
0.262547 0.26685 0.0108186
0.58735 0.202625 0.0319524
0.843091 0.062089 0
0.913939 0.0135805 0
0.913954 0.0135805 0
0.913939 0.0135805 0
0 0.559274 0
0 0.585565 0
0 0.598123 0
0 0.5906 0
0.526345 0.534203 0
0.87512 0.483177 0.00762951
1 0.43006 0.052491
1 0.409567 0.0550698
1 0.408682 0.0551766
0 0.885542 0
0 0.911116 0
0 0.924331 0
0 0.920882 0
0.234058 0.893477 0
0.815412 0.825071 0
1 0.794827 0
1 0.784634 0
1 0.783566 0
0 1 0
0 1 0
0 1 0
0 1 0
0 1 0
0.694011 1 0
0.986786 0.997513 0
1 0.984756 0
1 0.981765 0
0 1 0
0 1 0
0 1 0
0 1 0
0 1 0
0.633844 1 0
0.949828 1 0
1 0.996689 0
1 0.996674 0
0 1 0
0 1 0
0 1 0
0 1 0
0 1 0
0.608637 1 0
0.934554 1 0
1 0.996765 0
1 0.996689 0
0.0226902 0.000961318 0.333745
0.0226596 0.00102235 0.332174
0.125032 0.00366217 0.307836
0.302922 0 0.313542
0.55198 0 0.222141
0.806043 0.00381476 0.149676
0.927352 0.00982681 0.1019
0.923537 0.0107576 0.0701915
0.921935 0.0110781 0.0545968
0.0226749 0.000991836 0.332921
0.0227817 0.000839246 0.337133
0.114137 0.00204471 0.318181
0.310216 0 0.331258
0.586892 0 0.24387
0.848264 0.00311284 0.175723
0.932845 0.00808728 0.140536
0.930465 0.00877394 0.125124
0.929946 0.00889601 0.121706
0.0154269 0.0383001 0.31043
0.0166171 0.0330968 0.324514
0.0819409 0.0197757 0.321523
0.309529 0 0.343328
0.61387 0 0.26128
0.877607 0.00248722 0.196078
0.937133 0.00679026 0.166232
0.935409 0.00730907 0.156191
0.935515 0.00727855 0.156802
0 0.257908 0.228565
0 0.270405 0.243931
0 0.27303 0.251682
0.242908 0.242908 0.242908
0.555581 0.182513 0.216724
0.862531 0.00358587 0.173114
0.933471 0.00790417 0.144472
0.932082 0.00830091 0.135729
0.932357 0.00822461 0.13753
0 0.548089 0.0913863
0 0.573648 0.104509
0 0.586297 0.111223
0 0.578424 0.107179
0.514794 0.522896 0.125536
0.87512 0.466484 0.141527
0.996567 0.416617 0.124605
0.994842 0.394202 0.108721
0.994644 0.393301 0.108659
0 0.878828 0
0 0.903838 0
0 0.916106 0
0 0.912886 0
0.225299 0.885542 0
0.812436 0.816541 0
1 0.786221 0
1 0.775204 0
1 0.773968 0
0 1 0
0 1 0
0 1 0
0 1 0
0 1 0
0.689113 1 0
0.983993 0.990387 0
1 0.977554 0
1 0.974044 0
0 1 0
0 1 0
0 1 0
0 1 0
0 1 0
0.626596 1 0
0.945953 1 0
1 0.996674 0
1 0.996674 0
0 1 0
0 1 0
0 1 0
0 1 0
0 1 0
0.59968 1 0
0.930449 1 0
1 0.996841 0
1 0.996674 0
0.0296635 0 0.65008
0.0296483 0 0.649821
0.0915999 0 0.626734
0.262287 0 0.589639
0.553643 0 0.598138
0.865492 0 0.499001
0.989013 0 0.420798
0.983352 0 0.395804
0.981445 0 0.386831
0.0298161 0 0.655955
0.029984 0 0.663478
0.0688334 0 0.652659
0.272084 0 0.620569
0.589029 0 0.643229
0.914687 0 0.564797
1 0 0.511971
1 0 0.504265
1 0 0.506859
0.0294804 0 0.642374
0.0299687 0 0.662562
0.0302129 0 0.672648
0.276555 0 0.645685
0.615793 0 0.679667
0.947387 0 0.614771
1 0 0.573678
1 0 0.571984
1 0 0.579599
0 0.163699 0.589441
0 0.173266 0.616434
0 0.172717 0.630198
0.234653 0.137682 0.602167
0.585946 0.0194247 0.654139
0.936202 0 0.60798
1 0 0.567956
1 0 0.569223
1 0 0.579126
0 0.505898 0.457496
0 0.529854 0.482048
0 0.541238 0.495689
0 0.533104 0.498024
0.483375 0.483375 0.483375
0.829664 0.433814 0.464912
0.961135 0.379995 0.454643
0.962936 0.351949 0.454017
0.963912 0.348837 0.459648
0 0.85774 0.323629
0 0.881971 0.354818
0 0.893385 0.371725
0 0.889647 0.372641
0.177707 0.863951 0.365789
0.783246 0.79443 0.373266
1 0.769131 0.393225
1 0.757244 0.391608
1 0.75555 0.394827
0 1 0.230701
0 1 0.269535
0 1 0.289158
0 1 0.2878
0 1 0.271839
0.646479 1 0.242939
0.961212 0.972564 0.260197
1 0.959152 0.265064
1 0.955383 0.265202
0 1 0.207294
0 1 0.249546
0 1 0.267887
0 1 0.26186
0 1 0.240421
0.580133 1 0.203967
0.923293 1 0.20415
1 0.998413 0.207401
1 0.998383 0.203143
0 1 0.212497
0 1 0.252201
0 1 0.266331
0 1 0.255146
0 1 0.228687
0.551995 1 0.187716
0.907835 1 0.183139
1 0.998947 0.18468
1 0.998276 0.180133
0.0399329 0 0.970993
0.0399329 0 0.971038
0.0395514 0 0.961166
0.257313 0 0.909606
0.486473 0 0.89958
0.845212 0 0.914824
1 0 0.88632
1 0 0.871962
1 0 0.86772
0.0402228 0 0.97792
0.0404974 0 0.984848
0.0403906 0 0.982361
0.269154 0 0.938918
0.523857 0 0.941588
0.89369 0 0.97171
1 0 0.963043
1 0 0.960601
1 0 0.964004
0.0399939 0 0.971954
0.0406653 0 0.989044
0.0409247 0 0.997803
0.273991 0 0.963104
0.553124 0 0.974014
0.923751 0 1
1 0 1
1 0 1
1 0 1
0.0393835 0 0.957031
0.0402838 0 0.979828
0.0407111 0 0.990509
0.201923 0 0.967895
0.528023 0 0.96672
0.911437 0 1
1 0 1
1 0 1
1 0 1
0 0.409689 0.857664
0 0.436393 0.876692
0 0.4486 0.886793
0 0.438209 0.890471
0.481697 0.381384 0.862501
0.867643 0.302327 0.909728
1 0.21709 0.92398
1 0.174945 0.93492
1 0.168307 0.941833
0 0.806363 0.743343
0 0.830762 0.768627
0 0.842237 0.781704
0 0.837552 0.78291
0.108721 0.813336 0.777173
0.747768 0.747768 0.747768
0.960739 0.727123 0.741192
0.973648 0.713771 0.739727
0.973968 0.711208 0.741817
0 1 0.686824
0 1 0.715373
0 1 0.729976
0 1 0.729091
0 1 0.722072
0.597696 0.980743 0.687739
0.926162 0.935439 0.693751
1 0.922744 0.704311
1 0.918914 0.705013
0 1 0.680262
0 1 0.709407
0 1 0.721553
0 1 0.717998
0 1 0.705486
0.520211 1 0.665232
0.880598 1 0.651926
1 0.997009 0.66453
1 0.996719 0.6645
0 1 0.686534
0 1 0.712077
0 1 0.721675
0 1 0.715023
0 1 0.699687
0.490791 1 0.659022
0.862577 1 0.641306
0.987869 0.997787 0.65301
1 0.996735 0.654658
0.0478828 0 1
0.0478981 0 1
0.0476844 0 1
0.207263 0 1
0.486305 0 1
0.788785 0 1
1 0 1
1 0 1
1 0 1
0.0480964 0 1
0.048249 0 1
0.0482185 0 1
0.22707 0 1
0.523156 0 1
0.846067 0 1
1 0 1
1 0 1
1 0 1
0.0480049 0 1
0.0484016 0 1
0.0486 0 1
0.236622 0 1
0.550759 0 1
0.879911 0 1
1 0 1
1 0 1
1 0 1
0.0476692 0 1
0.0481422 0 1
0.0483711 0 1
0.131685 0 1
0.530938 0 1
0.868482 0 1
1 0 1
1 0 1
1 0 1
0 0.29633 1
0 0.333013 1
0 0.350072 1
0 0.337911 1
0.477897 0.277317 1
0.826383 0.186709 1
1 0.0389563 1
1 0 1
1 0 1
0 0.754955 0.996262
0 0.782605 1
0 0.796506 1
0 0.791516 1
0.0482032 0.766064 1
0.748882 0.694881 0.973678
0.986557 0.662074 1
1 0.645808 1
1 0.643 1
0 1 0.946792
0 1 0.958434
0 1 0.963989
0 1 0.963409
0 1 0.959365
0.569177 0.947768 0.924239
0.904631 0.904631 0.904631
0.984039 0.896971 0.901793
0.9841 0.892851 0.900923
0 1 0.93402
0 1 0.946426
0 1 0.95137
0 1 0.949004
0 1 0.941711
0.482338 1 0.905119
0.853086 1 0.881895
0.980117 0.984833 0.888457
1 0.980011 0.890608
0 1 0.934005
0 1 0.944808
0 1 0.948699
0 1 0.945068
0 1 0.936736
0.450385 1 0.901198
0.834134 1 0.875456
0.964965 0.998444 0.877638
1 0.997162 0.881529
0.0488289 0 1
0.0488136 0 1
0.0488136 0 1
0.155093 0 1
0.479545 0 1
0.768872 0 1
1 0 1
1 0 1
1 0 1
0.0488289 0 1
0.0488289 0 1
0.0488289 0 1
0.188251 0 1
0.517708 0 1
0.83444 0 1
1 0 1
1 0 1
1 0 1
0.0488289 0 1
0.0488136 0 1
0.0488136 0 1
0.205493 0 1
0.544961 0 1
0.87187 0 1
1 0 1
1 0 1
1 0 1
0.0488289 0 1
0.0488136 0 1
0.0488289 0 1
0.0806287 0 1
0.526482 0 1
0.860945 0 1
1 0 1
1 0 1
1 0 1
0 0.228656 1
0 0.275593 1
0 0.298848 1
0 0.286061 1
0.470405 0.219501 1
0.813138 0.103944 1
1 0 1
1 0 1
1 0 1
0 0.726482 1
0 0.757656 1
0 0.772946 1
0 0.768246 1
0.0163272 0.741405 1
0.749065 0.668162 1
0.971176 0.639826 1
1 0.622034 1
1 0.618433 1
0 1 1
0 1 1
0 1 1
0 1 1
0 0.99498 1
0.558297 0.930541 1
0.904509 0.885252 0.997696
0.997238 0.873762 1
0.997589 0.869017 1
0 1 1
0 1 1
0 1 1
0 1 1
0 1 1
0.46537 1 1
0.84477 0.986465 0.975769
0.970932 0.970932 0.970932
0.991577 0.968261 0.970001
0 1 1
0 1 1
0 1 1
0 1 1
0 1 1
0.432135 1 0.998535
0.82269 1 0.96849
0.955398 0.999329 0.964752
0.999512 0.997955 0.968109
0.0488136 0 1
0.0488136 0 1
0.0488136 0 1
0.120394 0 1
0.470939 0 1
0.761807 0 1
1 0 1
1 0 1
1 0 1
0.0488289 0 1
0.0488289 0 1
0.0488289 0 1
0.168048 0 1
0.514275 0 1
0.832425 0 1
1 0 1
1 0 1
1 0 1
0.0488289 0 1
0.0488136 0 1
0.0488136 0 1
0.193561 0 1
0.542672 0 1
0.871138 0 1
1 0 1
1 0 1
1 0 1
0.0488289 0 1
0.0488289 0 1
0.0488289 0 1
0.0633402 0 1
0.524819 0 1
0.860807 0 1
1 0 1
1 0 1
1 0 1
0 0.201724 1
0 0.255222 1
0 0.280385 1
0 0.26833 1
0.46804 0.198672 1
0.809964 0.0670329 1
1 0 1
1 0 1
1 0 1
0 0.717296 1
0 0.750149 1
0 0.765896 1
0 0.761212 1
0.00634775 0.733715 1
0.74847 0.659815 1
0.969512 0.630747 1
1 0.612757 1
1 0.608896 1
0 0.993286 1
0 1 1
0 1 1
0 1 1
0 0.988464 1
0.556268 0.924071 1
0.903517 0.877913 1
0.995132 0.867567 1
0.995087 0.862455 1
0 1 1
0 1 1
0 1 1
0 1 1
0 1 1
0.459663 1 1
0.841794 0.98027 1
0.970306 0.964111 0.999878
0.995193 0.960723 1
0 1 1
0 1 1
0 1 1
0 1 1
0 1 1
0.424842 1 1
0.818112 1 1
0.951751 0.999557 0.997009
0.996017 0.996017 0.996017
