scripts/05_editing/0500_uxp/LUTs/02_normal_scene.cube
TITLE "Generated by Resolve"
LUT_3D_SIZE 5
0.0122835 0.0122835 0.0122835
0.12932 0.0158541 0.0106661
0.51783 0.0130007 0
0.913924 0.0135653 0
0.913893 0.0135348 0
0 0.127672 0
0.0986343 0.111192 0.00732433
0.55227 0.0125582 0
0.913939 0.0135805 0
0.913939 0.0135805 0
0 0.552865 0
0 0.590005 0
0.514412 0.527291 0
1 0.421241 0.0536049
1 0.397742 0.0564736
0 1 0
0 1 0
0 1 0
0.983078 0.996048 0
1 0.980209 0
0 1 0
0 1 0
0 1 0
0.930266 1 0
1 0.996674 0
0.0161288 0.0081178 0.128923
0.138399 0.00801099 0.12401
0.518868 0.0115816 0.0314488
0.913939 0.0135805 0
0.913939 0.0135805 0
0 0.103426 0.0846265
0.0888533 0.0888533 0.0888533
0.5664 0.0107881 0.025742
0.913939 0.0135805 0
0.913939 0.0135805 0
0 0.559274 0
0 0.598123 0
0.526345 0.534203 0
1 0.43006 0.052491
1 0.408682 0.0551766
0 1 0
0 1 0
0 1 0
0.986786 0.997513 0
1 0.981765 0
0 1 0
0 1 0
0 1 0
0.934554 1 0
1 0.996689 0
0.0296635 0 0.65008
0.0915999 0 0.626734
0.553643 0 0.598138
0.989013 0 0.420798
0.981445 0 0.386831
0.0294804 0 0.642374
0.0302129 0 0.672648
0.615793 0 0.679667
1 0 0.573678
1 0 0.579599
0 0.505898 0.457496
0 0.541238 0.495689
0.483375 0.483375 0.483375
0.961135 0.379995 0.454643
0.963912 0.348837 0.459648
0 1 0.230701
0 1 0.289158
0 1 0.271839
0.961212 0.972564 0.260197
1 0.955383 0.265202
0 1 0.212497
0 1 0.266331
0 1 0.228687
0.907835 1 0.183139
1 0.998276 0.180133
0.0478828 0 1
0.0476844 0 1
0.486305 0 1
1 0 1
1 0 1
0.0480049 0 1
0.0486 0 1
0.550759 0 1
1 0 1
1 0 1
0 0.29633 1
0 0.350072 1
0.477897 0.277317 1
1 0.0389563 1
1 0 1
0 1 0.946792
0 1 0.963989
0 1 0.959365
0.904631 0.904631 0.904631
0.9841 0.892851 0.900923
0 1 0.934005
0 1 0.948699
0 1 0.936736
0.834134 1 0.875456
1 0.997162 0.881529
0.0488136 0 1
0.0488136 0 1
0.470939 0 1
1 0 1
1 0 1
0.0488289 0 1
0.0488136 0 1
0.542672 0 1
1 0 1
1 0 1
0 0.201724 1
0 0.280385 1
0.46804 0.198672 1
1 0 1
1 0 1
0 0.993286 1
0 1 1
0 0.988464 1
0.903517 0.877913 1
0.995087 0.862455 1
0 1 1
0 1 1
0 1 1
0.818112 1 1
0.996017 0.996017 0.996017
