scripts/05_editing/0500_uxp/LUTs/dark.cube
TITLE "Generated by Resolve"
LUT_3D_SIZE 9
0.0200809 0.0200809 0.0200809
0.0950637 0.0207218 0.0207218
0.236225 0.0212558 0.0212558
0.44036 0.0215152 0.0215152
0.707134 0.0198367 0.0198367
0.966003 0.0174563 0.0174563
0.975967 0.0174105 0.0174105
0.975952 0.0174105 0.0174105
0.975937 0.0173953 0.0173953
0.0227817 0.079057 0.0227817
0.0510109 0.0634928 0.0232395
0.213657 0.0408942 0.0222477
0.428046 0.0215457 0.0215457
0.699458 0.0199283 0.0199283
0.960739 0.0178988 0.0178988
0.975967 0.0174258 0.0174258
0.975967 0.0174258 0.0174258
0.975967 0.0174258 0.0174258
0.0245365 0.216815 0.0245365
0.0245823 0.20856 0.0245823
0.176623 0.196231 0.0256657
0.409567 0.155291 0.0239719
0.687709 0.0202792 0.0202792
0.952422 0.0179141 0.0179141
0.975967 0.0174258 0.0174258
0.975967 0.0174258 0.0174258
0.975952 0.0174258 0.0174258
0.0251316 0.40914 0.0251316
0.0251316 0.404974 0.0251316
0.0251316 0.39794 0.0251316
0.351186 0.379721 0.0271763
0.653834 0.33106 0.0247349
0.929747 0.242908 0.0210422
0.976471 0.138689 0.0192264
0.976486 0.0534524 0.0183108
0.976013 0.0174716 0.0174716
0.0235142 0.654841 0.0235142
0.0235447 0.651987 0.0235447
0.0232395 0.647745 0.0232395
0.14931 0.637186 0.0251926
0.571664 0.613123 0.028275
0.877394 0.57113 0.026627
0.979187 0.533379 0.0255741
0.978912 0.5131 0.0251926
0.978973 0.505058 0.0251926
0.0219272 0.900252 0.0219272
0.0216373 0.898283 0.0216373
0.0216526 0.895125 0.0216526
0.0217899 0.886946 0.0217899
0.422324 0.872938 0.0276341
0.791409 0.846769 0.0286717
0.98233 0.822751 0.0285191
0.982223 0.809888 0.0284581
0.981781 0.804608 0.0280613
0.0214237 0.975708 0.0214237
0.0214084 0.975692 0.0214084
0.0214084 0.975677 0.0214084
0.0214084 0.975677 0.0214084
0.231022 0.978607 0.024979
0.710048 0.982971 0.0293431
0.936202 0.983658 0.0293126
0.983459 0.983459 0.0289311
0.983444 0.983444 0.0289158
0.0214237 0.975692 0.0214237
0.0214084 0.975692 0.0214084
0.0214084 0.975692 0.0214084
0.0214084 0.975692 0.0214084
0.0214084 0.975692 0.0214084
0.663157 0.982589 0.0290837
0.901793 0.983474 0.0292515
0.983444 0.983444 0.0289158
0.983444 0.983444 0.0289158
0.0214389 0.975708 0.0214389
0.0214237 0.975692 0.0214237
0.0214237 0.975692 0.0214237
0.0214237 0.975692 0.0214237
0.0214237 0.975692 0.0214237
0.643824 0.982269 0.0287938
0.887892 0.983444 0.0292821
0.983444 0.983444 0.0289158
0.983459 0.983459 0.0289311
0.0200656 0.0200656 0.0608988
0.0873426 0.0210422 0.0586099
0.232807 0.0214542 0.0545815
0.438025 0.0214084 0.038407
0.705852 0.019852 0.019852
0.965133 0.0175174 0.0175174
0.975967 0.0174258 0.0174258
0.975967 0.0174258 0.0174258
0.975967 0.0174258 0.0174258
0.0225986 0.0576028 0.0469825
0.0426947 0.0426947 0.0426947
0.209079 0.0214237 0.0374762
0.425895 0.0215915 0.0215915
0.698344 0.0200198 0.0200198
0.959869 0.0179599 0.0179599
0.975967 0.0174411 0.0174411
0.975982 0.0174411 0.0174411
0.975967 0.0174258 0.0174258
0.0245975 0.205509 0.0245975
0.0246433 0.196796 0.0246433
0.17145 0.183764 0.0252537
0.406928 0.139696 0.0235752
0.686397 0.0202945 0.0202945
0.951522 0.0179446 0.0179446
0.975967 0.0174411 0.0174258
0.975967 0.0174258 0.0174258
0.975967 0.0174258 0.0174258
0.0252842 0.403555 0.0252842
0.0252842 0.39884 0.0252842
0.0254215 0.392126 0.0254215
0.348913 0.373342 0.0270237
0.652705 0.323934 0.0247807
0.928954 0.233051 0.0210727
0.976699 0.122408 0.0192569
0.976486 0.0326238 0.0180819
0.975967 0.0174258 0.0174258
0.0235904 0.651041 0.0235904
0.0232395 0.64831 0.0232395
0.0237888 0.644419 0.0237888
0.143709 0.633478 0.0249332
0.56997 0.609049 0.0278477
0.876371 0.567102 0.026627
0.979294 0.529198 0.0256504
0.978866 0.50808 0.0251316
0.978927 0.499962 0.0251469
0.0216373 0.897597 0.0216373
0.0216526 0.895537 0.0216526
0.0221561 0.892851 0.0221561
0.0218204 0.884138 0.0218204
0.419776 0.870176 0.0272526
0.790509 0.84416 0.0289616
0.982208 0.819928 0.0284123
0.982086 0.806806 0.0283513
0.981826 0.801511 0.0281224
0.0214237 0.975708 0.0214237
0.0214237 0.975692 0.0214237
0.0214084 0.975692 0.0214237
0.0214084 0.975692 0.0214084
0.227512 0.978546 0.024918
0.708965 0.982895 0.0292821
0.935225 0.983658 0.0293278
0.983444 0.983444 0.0289158
0.983474 0.983185 0.0289769
0.0214237 0.975692 0.0214237
0.0214237 0.975692 0.0214237
0.0214084 0.975692 0.0214084
0.0214084 0.975692 0.0214084
0.0214237 0.975692 0.0214237
0.661753 0.982574 0.0290684
0.900832 0.98352 0.0293126
0.983444 0.983444 0.0289158
0.983444 0.983444 0.0289311
0.0214389 0.975708 0.0214389
0.0214237 0.975692 0.0214237
0.0214237 0.975692 0.0214237
0.0214237 0.975692 0.0214237
0.0214237 0.975692 0.0214237
0.642649 0.982284 0.0288243
0.887129 0.983352 0.0291905
0.983444 0.983444 0.0289311
0.983444 0.983444 0.0289311
0.0200809 0.0200809 0.190677
0.0777142 0.0207675 0.188617
0.227192 0.0218967 0.187533
0.435065 0.0218204 0.179431
0.703593 0.0202945 0.154498
0.963821 0.0180209 0.110109
0.976074 0.0177615 0.0662547
0.976028 0.0176089 0.0433814
0.976028 0.0175479 0.0344701
0.020737 0.0261234 0.181186
0.0306706 0.0201419 0.178546
0.202884 0.0214542 0.176547
0.422431 0.0220798 0.16875
0.69601 0.0203403 0.142229
0.958236 0.0179751 0.0941024
0.976059 0.0176699 0.0493019
0.976013 0.0175174 0.0262913
0.975982 0.0174411 0.0174411
0.0245365 0.187335 0.169299
0.024506 0.177844 0.166415
0.163684 0.163684 0.163684
0.403388 0.11342 0.152605
0.684215 0.0204623 0.121904
0.94995 0.0177615 0.0673838
0.976028 0.0175021 0.0228122
0.975967 0.0174258 0.0174258
0.975967 0.0174258 0.0174258
0.0259251 0.394369 0.118135
0.0255283 0.389639 0.114488
0.0259403 0.382559 0.109621
0.345068 0.363409 0.0948653
0.651102 0.312413 0.055848
0.927199 0.216785 0.0206912
0.976272 0.0926986 0.0185245
0.975967 0.0174258 0.0174258
0.975967 0.0174258 0.0174258
0.023743 0.645731 0.023743
0.0237736 0.642908 0.0237736
0.0234989 0.638575 0.0234989
0.13492 0.627512 0.0250553
0.567666 0.603235 0.0280156
0.874769 0.560647 0.0265812
0.978866 0.521828 0.0252079
0.978943 0.500908 0.0251621
0.979004 0.492668 0.0251774
0.0220798 0.893751 0.0220798
0.0221561 0.891768 0.0221561
0.0218051 0.888701 0.0218051
0.0219577 0.880461 0.0219577
0.417212 0.866087 0.0276036
0.789029 0.83946 0.028748
0.982147 0.815152 0.0283665
0.981781 0.802029 0.0280613
0.981872 0.797192 0.0281682
0.0214237 0.975692 0.0214237
0.0214084 0.975692 0.0214084
0.0214237 0.975692 0.0214237
0.0214084 0.975692 0.0214084
0.221546 0.978424 0.0247654
0.707118 0.982834 0.029221
0.933745 0.983658 0.0293278
0.983459 0.983459 0.0289311
0.984192 0.979522 0.0296635
0.0214237 0.975692 0.0214237
0.0214084 0.975677 0.0214084
0.0214084 0.975677 0.0214084
0.0214084 0.975692 0.0214084
0.0214237 0.975692 0.0214237
0.659754 0.982528 0.0290227
0.899382 0.983612 0.0293889
0.983444 0.983444 0.0289158
0.983444 0.983444 0.0289158
0.0214389 0.975708 0.0214389
0.0214237 0.975692 0.0214237
0.0214237 0.975692 0.0214237
0.0214237 0.975692 0.0214237
0.0214237 0.975692 0.0214237
0.640604 0.982452 0.0289921
0.885573 0.983352 0.0291905
0.983459 0.983459 0.0289311
0.983444 0.983444 0.0289311
0.0204471 0.0204471 0.374578
0.0461585 0.0204776 0.373388
0.212253 0.0214389 0.371969
0.427039 0.022034 0.36846
0.697978 0.0204623 0.356222
0.959411 0.0184939 0.3355
0.975097 0.0178683 0.319539
0.975174 0.0178988 0.311391
0.975219 0.0179446 0.308019
0.0204166 0.0204166 0.369131
0.0204318 0.0204318 0.367864
0.186374 0.0212558 0.366552
0.413947 0.0221714 0.363302
0.69073 0.0209201 0.350851
0.954131 0.0184024 0.329793
0.975128 0.0178683 0.313603
0.975311 0.0180209 0.305425
0.975433 0.0181125 0.302022
0.0226596 0.126406 0.362722
0.0221866 0.11281 0.360967
0.139757 0.0900587 0.358923
0.393469 0.0240024 0.354772
0.67834 0.0208743 0.342168
0.945663 0.0183261 0.320607
0.975357 0.0180514 0.304189
0.97554 0.018204 0.29572
0.975555 0.0181888 0.292332
0.0259861 0.367834 0.342672
0.0255894 0.362768 0.340932
0.0256809 0.355276 0.338918
0.334691 0.334691 0.334691
0.644007 0.27866 0.320012
0.922438 0.166308 0.295781
0.975525 0.0181125 0.276295
0.975479 0.0180362 0.267018
0.975509 0.0180209 0.26302
0.0251164 0.630442 0.281682
0.0252842 0.627634 0.280217
0.0249332 0.623163 0.277699
0.108919 0.611673 0.272053
0.56173 0.586526 0.260594
0.870481 0.542611 0.233753
0.978729 0.50251 0.209659
0.978363 0.48069 0.19649
0.978347 0.471977 0.191424
0.0225681 0.882841 0.161639
0.0226139 0.880781 0.158938
0.0230106 0.877943 0.155535
0.0228122 0.869245 0.143603
0.408667 0.854414 0.120058
0.784222 0.82771 0.0694133
0.981781 0.802609 0.0280613
0.981888 0.789639 0.0282139
0.981857 0.784192 0.0281987
0.0214237 0.975708 0.0214389
0.0214237 0.975692 0.0214237
0.0214237 0.975692 0.0214237
0.0214084 0.975692 0.0214084
0.204303 0.977951 0.0242466
0.701564 0.982818 0.029221
0.929625 0.983642 0.0293278
0.983764 0.97322 0.0292668
0.983871 0.969421 0.0294041
0.0214237 0.975692 0.0214237
0.0214084 0.975692 0.0214084
0.0214084 0.975692 0.0214237
0.0214084 0.975677 0.0214084
0.0214084 0.975677 0.0214084
0.654002 0.982437 0.0289311
0.895415 0.983505 0.0293126
0.983444 0.983444 0.0289311
0.983444 0.983444 0.0289158
0.0214237 0.975708 0.0214237
0.0214237 0.975708 0.0214237
0.0214237 0.975692 0.0214237
0.0214237 0.975692 0.0214237
0.0214237 0.975692 0.0214237
0.634974 0.982544 0.0290837
0.881193 0.983337 0.0291905
0.983139 0.983459 0.0289464
0.983444 0.983444 0.0289311
0.0202487 0.0202487 0.61294
0.020264 0.020264 0.612222
0.172213 0.0206455 0.610834
0.408316 0.0216831 0.608469
0.685878 0.0205234 0.599344
0.950301 0.0182803 0.584649
0.974517 0.0179751 0.575814
0.974517 0.0179751 0.571054
0.974517 0.0179599 0.569162
0.0203098 0.0203098 0.609567
0.0203098 0.0203098 0.608789
0.139818 0.0205234 0.607324
0.394766 0.0214847 0.604761
0.678325 0.0208133 0.596216
0.945144 0.0184634 0.581796
0.974533 0.0179904 0.57232
0.974548 0.0179751 0.567575
0.974517 0.0179446 0.566018
0.0203098 0.0203098 0.604486
0.0202792 0.0202792 0.603906
0.0736858 0.0203403 0.602518
0.373373 0.0215915 0.6
0.666133 0.0206607 0.591241
0.936629 0.0184176 0.576547
0.974517 0.0179599 0.567102
0.974517 0.0179446 0.56231
0.974517 0.0179446 0.560388
0.0241703 0.300526 0.592599
0.0237583 0.29427 0.59144
0.0238193 0.284794 0.590356
0.308446 0.257939 0.586465
0.63093 0.181048 0.577737
0.913222 0.0187533 0.562493
0.974517 0.0179141 0.552178
0.974517 0.0178988 0.547539
0.974533 0.0178988 0.545586
0.0252079 0.594553 0.557137
0.0253452 0.591867 0.556435
0.0254368 0.587152 0.555276
0.0382544 0.574594 0.552468
0.547906 0.547906 0.547906
0.860349 0.500633 0.536171
0.977844 0.456443 0.524895
0.977554 0.432212 0.519539
0.977569 0.422446 0.517372
0.0242008 0.858595 0.505547
0.0242313 0.856443 0.504631
0.0246891 0.853559 0.503883
0.0246738 0.84477 0.50016
0.390555 0.828611 0.497124
0.775647 0.801617 0.488472
0.982712 0.776455 0.476829
0.982254 0.762524 0.470771
0.981857 0.756924 0.468406
0.0240482 0.977295 0.459648
0.0240482 0.977279 0.45861
0.0240482 0.977279 0.457038
0.0239872 0.977234 0.453117
0.163745 0.978882 0.446113
0.693187 0.982376 0.439506
0.922774 0.962585 0.428077
0.985183 0.952193 0.421546
0.985092 0.947616 0.418921
0.0238499 0.977096 0.433524
0.0238346 0.977096 0.432471
0.0237888 0.97705 0.431235
0.0238346 0.977096 0.426642
0.0240177 0.977295 0.417044
0.644556 0.983627 0.411261
0.888228 0.984802 0.398779
0.985031 0.985031 0.391806
0.984985 0.984985 0.38941
0.0238651 0.977127 0.423438
0.0238804 0.977127 0.422339
0.0239261 0.977188 0.420676
0.0240177 0.977295 0.41648
0.024094 0.977371 0.406424
0.624308 0.983383 0.39942
0.873869 0.98471 0.387228
0.976059 0.984924 0.380011
0.984909 0.984909 0.37702
0.0195621 0.0195621 0.848585
0.0195621 0.0195621 0.848173
0.0889906 0.0198978 0.847654
0.377905 0.0208286 0.844739
0.667735 0.0199893 0.836088
0.937636 0.0178378 0.823636
0.973693 0.0174105 0.816953
0.973709 0.0174258 0.813596
0.973709 0.0174105 0.812284
0.0196078 0.0196078 0.846677
0.0196231 0.0196231 0.846128
0.0412299 0.0197299 0.845273
0.363241 0.0206607 0.842206
0.659648 0.0199588 0.833677
0.932204 0.017792 0.821149
0.973709 0.0174411 0.814481
0.973724 0.0174411 0.811109
0.973693 0.0174105 0.810178
0.0196994 0.0196994 0.842939
0.0196994 0.0196994 0.842374
0.0197147 0.0197147 0.841535
0.339773 0.0207675 0.839185
0.647181 0.019852 0.829938
0.923506 0.0177157 0.817838
0.973709 0.0174258 0.810712
0.973693 0.0174105 0.807691
0.973709 0.0174105 0.806378
0.0214237 0.157076 0.833677
0.0210727 0.145968 0.832868
0.021149 0.127382 0.832258
0.264759 0.0643778 0.829679
0.611337 0.0202487 0.82121
0.899687 0.0180972 0.808255
0.973693 0.0173953 0.800855
0.973709 0.0174105 0.797436
0.973709 0.0174105 0.796078
0.0239719 0.537011 0.806043
0.0241855 0.53373 0.805905
0.0240787 0.52874 0.805066
0.0238651 0.51429 0.80264
0.524742 0.483726 0.797269
0.845777 0.428489 0.789212
0.976425 0.375906 0.781476
0.975952 0.346197 0.777859
0.975921 0.333791 0.776425
0.0242466 0.820356 0.771069
0.0239872 0.818311 0.770336
0.0243687 0.815183 0.769787
0.0242924 0.805829 0.767117
0.35816 0.788449 0.765011
0.759747 0.759747 0.759747
0.970184 0.733455 0.753674
0.980316 0.718593 0.750301
0.980453 0.713008 0.748943
0.0245823 0.978195 0.742504
0.0245975 0.978195 0.741878
0.0245975 0.97821 0.740917
0.0245823 0.97818 0.738384
0.0748608 0.968658 0.733562
0.677638 0.948852 0.73341
0.910445 0.928969 0.727977
0.984634 0.917998 0.724193
0.984207 0.913436 0.722271
0.0245365 0.978088 0.726772
0.0245212 0.978088 0.726116
0.0245365 0.978088 0.725139
0.0245365 0.978088 0.722377
0.0244907 0.978027 0.716747
0.627894 0.983963 0.717067
0.876143 0.985092 0.711894
0.977295 0.985534 0.708263
0.98558 0.98558 0.706691
0.0245212 0.978058 0.720668
0.024506 0.978042 0.720012
0.024506 0.978042 0.719005
0.024506 0.978027 0.716228
0.0244755 0.977996 0.710552
0.606836 0.983658 0.710231
0.862272 0.985092 0.705547
0.965011 0.98584 0.70193
0.985534 0.985534 0.700252
0.0189059 0.0189059 0.985336
0.0189059 0.0189059 0.985336
0.0189059 0.0189059 0.985351
0.349569 0.0200504 0.984192
0.652064 0.0194247 0.979461
0.926726 0.0174411 0.973953
0.972885 0.0165866 0.971908
0.972976 0.0166781 0.968719
0.972976 0.0167086 0.967651
0.0189059 0.0189059 0.985351
0.0189212 0.0189212 0.985351
0.0189059 0.0189059 0.985351
0.334142 0.0201267 0.984436
0.643748 0.019379 0.979538
0.921218 0.0173953 0.973953
0.972961 0.0166781 0.969421
0.973007 0.0167391 0.966705
0.973022 0.0167391 0.965637
0.0189212 0.0189212 0.985351
0.0189059 0.0189059 0.985351
0.0189212 0.0189212 0.985351
0.308217 0.0198367 0.98439
0.631098 0.0194247 0.979782
0.912398 0.017319 0.97322
0.973022 0.0167391 0.966293
0.973053 0.0167697 0.964065
0.973083 0.0168154 0.962997
0.0189212 0.0189212 0.985351
0.0189059 0.0189059 0.985336
0.0189059 0.0189059 0.985336
0.223102 0.019852 0.985138
0.594293 0.0198215 0.97731
0.888243 0.017731 0.965148
0.973236 0.016968 0.958221
0.973251 0.0169985 0.955886
0.973266 0.0170138 0.954864
0.0233921 0.483375 0.965087
0.023209 0.479545 0.964508
0.0231479 0.473915 0.96379
0.0230869 0.457801 0.962097
0.504509 0.421408 0.956985
0.833555 0.356863 0.94873
0.975464 0.292378 0.942275
0.975021 0.253162 0.939025
0.974762 0.23682 0.937621
0.0237888 0.787015 0.934844
0.0236667 0.784649 0.934401
0.0236515 0.780941 0.933883
0.0236362 0.771405 0.931777
0.328084 0.753094 0.92987
0.746593 0.723201 0.923568
0.960052 0.69453 0.919631
0.980148 0.678889 0.91664
0.980209 0.672953 0.915541
0.0245518 0.969772 0.91252
0.0245365 0.967865 0.911986
0.024155 0.965057 0.910811
0.0243687 0.957443 0.909102
0.0242924 0.940322 0.904418
0.662135 0.920455 0.904097
0.899306 0.899306 0.899306
0.982513 0.888624 0.896986
0.982834 0.884138 0.896193
0.0240635 0.978134 0.899748
0.0240482 0.978119 0.899229
0.0240482 0.978119 0.898436
0.0240635 0.978134 0.896269
0.024033 0.978088 0.891829
0.611337 0.983841 0.891508
0.866743 0.985016 0.889342
0.968124 0.976867 0.887968
0.986084 0.972854 0.886732
0.0240787 0.978149 0.89453
0.0240635 0.978134 0.894011
0.0240787 0.978134 0.893217
0.024033 0.978088 0.891493
0.0240482 0.978088 0.886625
0.590097 0.983993 0.886824
0.852308 0.984741 0.883696
0.955352 0.985595 0.882277
0.986038 0.986038 0.881498
0.0189059 0.0189059 0.985351
0.0189059 0.0189059 0.985351
0.0189059 0.0189059 0.985351
0.334676 0.0200961 0.984405
0.64416 0.0193637 0.979507
0.921492 0.01738 0.973953
0.972885 0.0165866 0.972885
0.972869 0.0165713 0.972869
0.972869 0.0165713 0.972869
0.0189059 0.0189212 0.985351
0.0189059 0.0189059 0.985351
0.0189212 0.0189212 0.985351
0.318212 0.0200504 0.984512
0.635752 0.0193179 0.979614
0.915877 0.0173495 0.973968
0.972885 0.0165866 0.972885
0.972885 0.0165866 0.972885
0.972869 0.0165713 0.972869
0.0189212 0.0189212 0.985351
0.0189059 0.0189059 0.985351
0.0189059 0.0189059 0.985336
0.29131 0.0200809 0.984802
0.623194 0.0196689 0.980148
0.907073 0.0172885 0.973983
0.972869 0.0165866 0.972869
0.972885 0.0165866 0.972885
0.972869 0.0165713 0.972869
0.0189212 0.0189212 0.985367
0.0189059 0.0189059 0.985351
0.0189059 0.0189059 0.985336
0.198993 0.0195163 0.98497
0.585916 0.0198215 0.980911
0.882719 0.0176699 0.974548
0.972885 0.0165866 0.972885
0.972885 0.0165866 0.972885
0.972869 0.0165713 0.972869
0.0230259 0.452903 0.98024
0.0231327 0.449378 0.980453
0.0229343 0.442969 0.980392
0.0229648 0.42594 0.98088
0.494011 0.386343 0.979583
0.827024 0.31397 0.976364
0.974762 0.238468 0.974762
0.974334 0.190204 0.974334
0.974273 0.16846 0.974273
0.0234531 0.768887 0.977066
0.0234531 0.766445 0.97705
0.0236515 0.762951 0.977249
0.0232242 0.752987 0.976822
0.311254 0.733669 0.979355
0.739406 0.70277 0.979614
0.954925 0.673716 0.980423
0.980514 0.657633 0.980514
0.980072 0.65095 0.980072
0.0240635 0.955337 0.978332
0.0243534 0.953704 0.978622
0.0243381 0.950683 0.978576
0.0244144 0.943023 0.978637
0.024033 0.925185 0.978164
0.653483 0.905104 0.978973
0.89369 0.88394 0.972824
0.982681 0.87303 0.971344
0.982589 0.867994 0.970352
0.0242161 0.978561 0.975906
0.0242161 0.978561 0.975448
0.0242161 0.978576 0.974823
0.0242161 0.978576 0.973266
0.0242618 0.978607 0.968902
0.602686 0.984268 0.968719
0.861189 0.972244 0.964538
0.962661 0.962661 0.962661
0.984131 0.958862 0.961883
0.0242618 0.978607 0.97171
0.0242618 0.978607 0.971252
0.0242618 0.978607 0.97052
0.0242618 0.978592 0.968521
0.0242466 0.978546 0.964553
0.581186 0.984298 0.963943
0.846845 0.985214 0.960418
0.95198 0.985489 0.959457
0.986038 0.986038 0.959182
0.0189059 0.0189059 0.985351
0.0189059 0.0189059 0.985336
0.0189059 0.0189059 0.985351
0.328847 0.0202029 0.984558
0.641306 0.0192721 0.979477
0.919264 0.0173953 0.973968
0.972885 0.0165866 0.972885
0.972885 0.0165866 0.972885
0.972869 0.0165713 0.972869
0.0189212 0.0189212 0.985367
0.0189059 0.0189059 0.985351
0.0189059 0.0189059 0.985351
0.311757 0.0199435 0.984466
0.632898 0.0193027 0.979629
0.91371 0.0173495 0.973983
0.972885 0.0165866 0.972885
0.972885 0.0165866 0.972885
0.972869 0.0165866 0.972869
0.0189212 0.0189212 0.985351
0.0189059 0.0189059 0.985336
0.0189059 0.0189059 0.985351
0.284337 0.0199435 0.984726
0.619837 0.0196841 0.98024
0.904814 0.0173037 0.974014
0.972869 0.0165866 0.972869
0.972869 0.0165866 0.972869
0.972869 0.0165866 0.972869
0.0189212 0.0189212 0.985367
0.0189059 0.0189059 0.985351
0.0189059 0.0189059 0.985351
0.18912 0.0197452 0.98526
0.582315 0.019852 0.980987
0.8804 0.0176852 0.974578
0.972885 0.0165866 0.972885
0.972885 0.0165866 0.972885
0.972885 0.0165866 0.972885
0.0229038 0.440772 0.980407
0.023209 0.436866 0.980865
0.022858 0.430335 0.980636
0.0230564 0.412665 0.981308
0.489769 0.37142 0.9794
0.824643 0.295888 0.976516
0.974441 0.214389 0.974441
0.973953 0.160128 0.973953
0.973846 0.134768 0.973846
0.0236057 0.761975 0.977203
0.0236057 0.759487 0.977188
0.0236057 0.755688 0.977203
0.0233616 0.745892 0.976974
0.304616 0.726009 0.979187
0.736568 0.694957 0.979706
0.95317 0.66537 0.980377
0.980285 0.648844 0.980285
0.980117 0.642359 0.980117
0.0241855 0.949676 0.978424
0.0239567 0.947784 0.97818
0.0240024 0.944823 0.97821
0.024033 0.937057 0.978195
0.0242313 0.91957 0.978332
0.65066 0.898939 0.983154
0.891356 0.877989 0.982086
0.982788 0.866316 0.982773
0.982834 0.861906 0.982834
0.0241245 0.978485 0.978485
0.0241245 0.978485 0.978485
0.0241245 0.978485 0.978485
0.0241245 0.978485 0.978485
0.0241245 0.978485 0.978485
0.599069 0.98436 0.98436
0.85864 0.967178 0.985168
0.960815 0.957336 0.98407
0.984344 0.953643 0.984344
0.024155 0.9785 0.9785
0.0241398 0.9785 0.9785
0.0241245 0.978485 0.978485
0.0241245 0.978485 0.978485
0.0241398 0.978485 0.978485
0.577371 0.984024 0.984024
0.843854 0.985 0.985
0.949935 0.985794 0.985794
0.986801 0.986801 0.986801
