scripts/05_editing/0500_uxp/LUTs/dark.cube
TITLE "Generated by Resolve"
LUT_3D_SIZE 33
0.0200809 0.0200809 0.0200809
0.0200961 0.0200961 0.0200961
0.0243229 0.0200351 0.0200351
0.0592203 0.0204623 0.0204623
0.0950637 0.0207218 0.0207218
0.126406 0.0208133 0.0208133
0.158495 0.0208896 0.0208896
0.195605 0.0210574 0.0210574
0.236225 0.0212558 0.0212558
0.280934 0.0214389 0.0214389
0.329381 0.0215152 0.0215152
0.382483 0.0215152 0.0215152
0.44036 0.0215152 0.0215152
0.502586 0.0214389 0.0214389
0.568521 0.0209964 0.0209964
0.636927 0.0205234 0.0205234
0.707134 0.0198367 0.0198367
0.776669 0.0193179 0.0193179
0.84448 0.0189212 0.0189212
0.90782 0.0181735 0.0181735
0.966003 0.0174563 0.0174563
0.975952 0.0174105 0.0174105
0.975952 0.0174105 0.0174105
0.975967 0.0174105 0.0174105
0.975967 0.0174105 0.0174105
0.975952 0.0174105 0.0174105
0.975952 0.0174105 0.0174105
0.975967 0.0174105 0.0174105
0.975952 0.0174105 0.0174105
0.975967 0.0174105 0.0174105
0.975952 0.0174105 0.0174105
0.975952 0.0174105 0.0174105
0.975937 0.0173953 0.0173953
0.0201114 0.0201114 0.0201114
0.0201114 0.0201114 0.0201114
0.0200961 0.0200961 0.0200961
0.0476844 0.0201724 0.0201724
0.0831922 0.0204471 0.0204471
0.11693 0.0205692 0.0205692
0.150546 0.0209201 0.0209201
0.188861 0.0209506 0.0209506
0.230671 0.0211185 0.0211185
0.27599 0.0213931 0.0213931
0.325643 0.0216373 0.0216373
0.379065 0.0214237 0.0214237
0.437491 0.0216831 0.0216831
0.500069 0.0213626 0.0213626
0.566018 0.0210117 0.0210117
0.63505 0.0204318 0.0204318
0.705135 0.019852 0.019852
0.775021 0.019501 0.019501
0.842863 0.0189212 0.0189212
0.906325 0.0181888 0.0181888
0.964675 0.0175479 0.0175479
0.975967 0.0174258 0.0174258
0.975967 0.0174258 0.0174258
0.975967 0.0174258 0.0174258
0.975967 0.0174258 0.0174258
0.975967 0.0174258 0.0174258
0.975967 0.0174258 0.0174258
0.975967 0.0174258 0.0174258
0.975967 0.0174258 0.0174258
0.975967 0.0174258 0.0174258
0.975952 0.0174105 0.0174105
0.975952 0.0174105 0.0174105
0.975952 0.0173953 0.0173953
0.0201114 0.0201114 0.0201114
0.0200961 0.0200961 0.0200961
0.0200961 0.0200961 0.0200961
0.0362402 0.0204318 0.0204318
0.0715801 0.0207675 0.0207675
0.106783 0.0209049 0.0209049
0.142306 0.0211032 0.0211032
0.18233 0.0212711 0.0212711
0.224903 0.0210117 0.0210117
0.271183 0.0212711 0.0212711
0.321218 0.0216373 0.0216373
0.37525 0.0214237 0.0214237
0.434409 0.0216526 0.0216526
0.497215 0.0213474 0.0213474
0.563729 0.0209506 0.0209506
0.632853 0.0204471 0.0204471
0.70312 0.0198672 0.0198672
0.773434 0.0196078 0.0196078
0.841215 0.0189517 0.0189517
0.904799 0.018204 0.018204
0.963363 0.0176699 0.0176699
0.975967 0.0174258 0.0174258
0.975967 0.0174258 0.0174258
0.975967 0.0174258 0.0174258
0.975967 0.0174258 0.0174258
0.975967 0.0174258 0.0174258
0.975967 0.0174258 0.0174258
0.975967 0.0174258 0.0174258
0.975967 0.0174258 0.0174258
0.975967 0.0174258 0.0174258
0.975967 0.0174258 0.0174258
0.975952 0.0174105 0.0174105
0.975952 0.0174105 0.0174105
0.0217594 0.0472267 0.0217594
0.021973 0.0434424 0.021973
0.0215457 0.0393683 0.0215457
0.0268254 0.035584 0.021912
0.0608377 0.0327306 0.0217899
0.0956436 0.0290227 0.0213016
0.1337 0.0247044 0.0214847
0.175051 0.0211795 0.0211795
0.219013 0.0212863 0.0212863
0.265965 0.0212253 0.0212253
0.317067 0.0215152 0.0215152
0.371756 0.0213321 0.0213321
0.431037 0.0216526 0.0216526
0.49427 0.0213626 0.0213626
0.561273 0.0209354 0.0209354
0.630564 0.0204623 0.0204623
0.701091 0.0198978 0.0198978
0.771984 0.0196078 0.0196078
0.839551 0.018967 0.018967
0.903258 0.0182193 0.0182193
0.962097 0.0178073 0.0178073
0.975967 0.0174258 0.0174258
0.975967 0.0174258 0.0174258
0.975967 0.0174258 0.0174258
0.975967 0.0174258 0.0174258
0.975967 0.0174258 0.0174258
0.975967 0.0174258 0.0174258
0.975967 0.0174258 0.0174258
0.975967 0.0174258 0.0174258
0.975967 0.0174258 0.0174258
0.975967 0.0174258 0.0174258
0.975967 0.0174258 0.0174258
0.975952 0.0174105 0.0174105
0.0227817 0.079057 0.0227817
0.0227207 0.0749676 0.0227207
0.0224765 0.0708476 0.0224765
0.0226902 0.0671702 0.0226902
0.0510109 0.0634928 0.0232395
0.085359 0.060441 0.0230259
0.125292 0.0558633 0.0224765
0.168353 0.0491951 0.0221561
0.213657 0.0408942 0.0222477
0.261616 0.0299535 0.0220188
0.312535 0.0214847 0.0214847
0.367864 0.0213474 0.0213474
0.428046 0.0215457 0.0215457
0.491707 0.0212711 0.0212711
0.558679 0.0209354 0.0209354
0.62829 0.0204776 0.0204776
0.699458 0.0199283 0.0199283
0.770153 0.0196384 0.0196384
0.837964 0.0189517 0.0189517
0.902022 0.0181582 0.0181582
0.960739 0.0178988 0.0178988
0.975967 0.0174258 0.0174258
0.975967 0.0174258 0.0174258
0.975967 0.0174258 0.0174258
0.975967 0.0174258 0.0174258
0.975967 0.0174258 0.0174258
0.975967 0.0174258 0.0174258
0.975967 0.0174258 0.0174258
0.975967 0.0174258 0.0174258
0.975967 0.0174258 0.0174258
0.975967 0.0174258 0.0174258
0.975967 0.0174258 0.0174258
0.975967 0.0174258 0.0174258
0.0232853 0.109834 0.0232853
0.0232242 0.10602 0.0232242
0.0231632 0.102235 0.0231632
0.0232395 0.0986343 0.0232395
0.0408179 0.0948043 0.0238651
0.0751202 0.0911269 0.0239719
0.116381 0.0866865 0.0234531
0.161837 0.0806592 0.0234836
0.207996 0.0719615 0.0229038
0.256916 0.0610819 0.0225223
0.308995 0.0468605 0.0222782
0.365057 0.0284428 0.0220188
0.424659 0.021561 0.021561
0.488762 0.0212863 0.0212863
0.556222 0.0209354 0.0209354
0.626505 0.0205081 0.0205081
0.697688 0.0200809 0.0200809
0.768322 0.0196536 0.0196536
0.836622 0.0188907 0.0188907
0.900633 0.0181582 0.0181582
0.959365 0.0179599 0.0179599
0.975967 0.0174258 0.0174258
0.975967 0.0174258 0.0174258
0.975967 0.0174258 0.0174258
0.975967 0.0174258 0.0174258
0.975967 0.0174258 0.0174258
0.975967 0.0174258 0.0174258
0.975967 0.0174258 0.0174258
0.975967 0.0174258 0.0174258
0.975967 0.0174258 0.0174258
0.975967 0.0174258 0.0174258
0.975967 0.0174258 0.0174258
0.975967 0.0174258 0.0174258
0.0237736 0.141482 0.0237736
0.0236362 0.138399 0.0236362
0.0235752 0.135164 0.0235752
0.0236667 0.132494 0.0236667
0.026978 0.129366 0.0238956
0.0621805 0.126177 0.0243687
0.104631 0.122683 0.0243687
0.15256 0.117556 0.024094
0.200931 0.110338 0.0238499
0.250568 0.0997024 0.0232242
0.303914 0.0852522 0.0227512
0.360388 0.0669871 0.0224613
0.421439 0.0442206 0.0221714
0.485176 0.0212558 0.0212558
0.553277 0.0208743 0.0208743
0.623911 0.0207675 0.0207675
0.695338 0.020264 0.020264
0.766064 0.0196689 0.0196689
0.834577 0.0189059 0.0189059
0.898726 0.018143 0.018143
0.9579 0.0178836 0.0178836
0.975952 0.0174258 0.0174258
0.975967 0.0174258 0.0174258
0.975952 0.0174258 0.0174258
0.975952 0.0174258 0.0174258
0.975952 0.0174105 0.0174105
0.975952 0.0174105 0.0174105
0.975967 0.0174258 0.0174258
0.975967 0.0174258 0.0174258
0.975967 0.0174258 0.0174258
0.975967 0.0174258 0.0174258
0.975967 0.0174258 0.0174258
0.975967 0.0174105 0.0174105
0.0239261 0.17734 0.0239261
0.0243687 0.175219 0.0243687
0.024155 0.172656 0.024155
0.0239567 0.170031 0.0239567
0.0239261 0.1673 0.0239261
0.0427558 0.165072 0.0245365
0.0861677 0.162142 0.0246128
0.139757 0.158099 0.0249485
0.190585 0.152529 0.0246738
0.242573 0.144747 0.0243839
0.297307 0.134096 0.0242771
0.355154 0.119265 0.0238346
0.416175 0.0979934 0.0230564
0.481209 0.0695201 0.0223239
0.549416 0.0349584 0.0215915
0.620264 0.0208743 0.0208743
0.692103 0.0202792 0.0202792
0.763333 0.0195926 0.0195926
0.831708 0.0189364 0.0189364
0.896117 0.0181888 0.0181888
0.955581 0.0178836 0.0178836
0.975967 0.0174258 0.0174258
0.975967 0.0174258 0.0174258
0.975967 0.0174258 0.0174258
0.975967 0.0174258 0.0174258
0.975967 0.0174258 0.0174258
0.975967 0.0174258 0.0174258
0.975967 0.0174258 0.0174258
0.975967 0.0174258 0.0174258
0.975967 0.0174258 0.0174258
0.975967 0.0174258 0.0174258
0.975967 0.0174258 0.0174258
0.975967 0.0174258 0.0174258
0.0245365 0.216815 0.0245365
0.0245212 0.214649 0.0245212
0.0244907 0.212436 0.0244907
0.0241245 0.21033 0.0241245
0.0245823 0.20856 0.0245823
0.024567 0.206302 0.024567
0.0609751 0.20383 0.0248112
0.119692 0.200732 0.0253452
0.176623 0.196231 0.0256657
0.2318 0.190204 0.0253605
0.288304 0.181796 0.0249638
0.347005 0.170428 0.0242924
0.409567 0.155291 0.0239719
0.4757 0.134112 0.0234684
0.544488 0.104616 0.0226291
0.615885 0.0640879 0.0217899
0.687709 0.0202792 0.0202792
0.759243 0.0196384 0.0196384
0.828367 0.0188754 0.0188754
0.893034 0.0181735 0.0181735
0.952422 0.0179141 0.0179141
0.975967 0.0174258 0.0174258
0.975967 0.0174258 0.0174258
0.975967 0.0174258 0.0174258
0.975967 0.0174258 0.0174258
0.975967 0.0174258 0.0174258
0.975967 0.0174258 0.0174258
0.975967 0.0174258 0.0174258
0.975967 0.0174258 0.0174258
0.975967 0.0174258 0.0174258
0.975967 0.0174258 0.0174258
0.975967 0.0174258 0.0174258
0.975952 0.0174258 0.0174258
0.024918 0.259358 0.024918
0.0248112 0.257557 0.0248112
0.024567 0.255787 0.024567
0.0245518 0.253895 0.0245518
0.0248722 0.252338 0.0248722
0.024979 0.250599 0.024979
0.0274662 0.248554 0.0247807
0.0879225 0.245396 0.0251316
0.155169 0.241978 0.0256962
0.215839 0.23714 0.0260319
0.275471 0.230579 0.0257877
0.336782 0.221607 0.0253605
0.400519 0.209598 0.0245975
0.467903 0.193988 0.0242313
0.537881 0.173037 0.0237888
0.609506 0.145083 0.0225223
0.682429 0.106859 0.0214237
0.754833 0.0556039 0.0205081
0.82359 0.0188907 0.0188907
0.889036 0.0184939 0.0184939
0.948714 0.0178378 0.0178378
0.975967 0.0174258 0.0174258
0.975967 0.0174258 0.0174258
0.975967 0.0174258 0.0174258
0.975967 0.0174258 0.0174258
0.975967 0.0174258 0.0174258
0.975967 0.0174258 0.0174258
0.975967 0.0174258 0.0174258
0.975967 0.0174258 0.0174258
0.975967 0.0174258 0.0174258
0.975967 0.0174258 0.0174258
0.975967 0.0174258 0.0174258
0.975967 0.0174258 0.0174258
0.0252079 0.305684 0.0252079
0.0249638 0.30428 0.0249638
0.0249027 0.302724 0.0249027
0.0248875 0.301137 0.0248875
0.0248875 0.299519 0.0248875
0.0248875 0.297932 0.0248875
0.0246891 0.296208 0.0246891
0.045304 0.293706 0.0249943
0.122454 0.290455 0.0257572
0.192828 0.286717 0.0262913
0.257588 0.280995 0.0262608
0.322423 0.273762 0.0260777
0.388739 0.264302 0.025391
0.45774 0.251972 0.0252537
0.528603 0.235584 0.0243381
0.601541 0.215137 0.0234531
0.675547 0.189303 0.022797
0.748409 0.156497 0.0218509
0.818143 0.113848 0.0204013
0.883879 0.0582742 0.0190433
0.94345 0.0178988 0.0178988
0.975967 0.0174258 0.0174258
0.975967 0.0174258 0.0174258
0.975967 0.0174258 0.0174258
0.975967 0.0174258 0.0174258
0.975967 0.0174258 0.0174258
0.975967 0.0174258 0.0174258
0.975967 0.0174258 0.0174258
0.975967 0.0174258 0.0174258
0.975967 0.0174258 0.0174258
0.975967 0.0174258 0.0174258
0.975967 0.0174258 0.0174258
0.975967 0.0174258 0.0174258
0.0250553 0.355535 0.0250553
0.0250553 0.354208 0.0250553
0.0250553 0.352865 0.0250553
0.0250553 0.351492 0.0250553
0.0248875 0.350317 0.0248875
0.0251164 0.34934 0.0251164
0.0251774 0.347723 0.0251774
0.0251621 0.345388 0.0251621
0.0696727 0.342672 0.0254215
0.158618 0.3393 0.0264286
0.232883 0.334569 0.0264134
0.303349 0.328649 0.0269017
0.37319 0.320882 0.0267643
0.444053 0.310765 0.0260471
0.51693 0.297627 0.0255589
0.591134 0.281193 0.0245365
0.665904 0.261448 0.0234684
0.739513 0.237552 0.0223697
0.810681 0.209705 0.0217288
0.87715 0.176989 0.0206302
0.93753 0.139208 0.0196536
0.976272 0.0937209 0.0185397
0.976654 0.045716 0.0184024
0.975967 0.0174258 0.0174258
0.975967 0.0174258 0.0174258
0.975967 0.0174258 0.0174258
0.975967 0.0174258 0.0174258
0.975967 0.0174258 0.0174258
0.975967 0.0174258 0.0174258
0.975967 0.0174258 0.0174258
0.975967 0.0174258 0.0174258
0.975967 0.0174258 0.0174258
0.975967 0.0174258 0.0174258
0.0251316 0.40914 0.0251316
0.0251316 0.407996 0.0251316
0.0251469 0.406851 0.0251469
0.0251316 0.405753 0.0251316
0.0251316 0.404974 0.0251316
0.0252537 0.403967 0.0252537
0.0252537 0.402518 0.0252537
0.0252537 0.400504 0.0252537
0.0251316 0.39794 0.0251316
0.102632 0.394965 0.0257877
0.197223 0.391165 0.0268559
0.276066 0.386023 0.0269474
0.351186 0.379721 0.0271763
0.4262 0.371313 0.0270237
0.501595 0.360571 0.0267338
0.577935 0.347204 0.0257725
0.653834 0.33106 0.0247349
0.729198 0.312444 0.0239872
0.801007 0.29131 0.0228428
0.868315 0.26775 0.0216983
0.929747 0.242908 0.0210422
0.976806 0.216663 0.020325
0.976379 0.190387 0.0196841
0.976608 0.164553 0.0196536
0.976471 0.138689 0.0192264
0.976349 0.11371 0.0187991
0.976471 0.0899367 0.0186923
0.976181 0.0693675 0.0181888
0.976486 0.0534524 0.0183108
0.976303 0.0407568 0.0180056
0.976486 0.0308995 0.0180667
0.976669 0.0234379 0.0181582
0.976013 0.0174716 0.0174716
0.0250095 0.466453 0.0250095
0.0250248 0.465476 0.0250248
0.0250248 0.464469 0.0250248
0.0250248 0.463447 0.0250248
0.0250401 0.46244 0.0250401
0.0250401 0.461418 0.0250401
0.0248417 0.460243 0.0248417
0.0250858 0.458991 0.0250858
0.0251926 0.456825 0.0251926
0.0251926 0.45388 0.0251926
0.141756 0.450736 0.0261387
0.239063 0.446525 0.0271916
0.322606 0.44094 0.0274052
0.402838 0.433982 0.0275731
0.481727 0.42472 0.0271153
0.560861 0.413642 0.0267948
0.638972 0.400412 0.0259098
0.715999 0.38529 0.0251774
0.789212 0.368063 0.024155
0.857801 0.349783 0.0234836
0.919799 0.330816 0.0224002
0.97554 0.311345 0.0214847
0.977234 0.293416 0.0214084
0.976638 0.276188 0.020737
0.976822 0.26099 0.0207218
0.976898 0.247074 0.0206455
0.976593 0.235325 0.0203098
0.976715 0.225437 0.0203098
0.976822 0.217411 0.020325
0.976501 0.21062 0.0200046
0.976547 0.205585 0.0199893
0.976532 0.201175 0.0199283
0.97644 0.198154 0.0198215
0.0245212 0.526574 0.0245212
0.0245365 0.525704 0.0245365
0.0246281 0.52491 0.0246281
0.0248569 0.524239 0.0248569
0.0249332 0.523583 0.0249332
0.0247044 0.522789 0.0247044
0.0247044 0.521691 0.0247044
0.0247196 0.520165 0.0247196
0.0247349 0.518196 0.0247349
0.0246433 0.515663 0.0246433
0.0463569 0.512825 0.0249332
0.184436 0.509468 0.0266423
0.283803 0.504631 0.027039
0.372259 0.49865 0.0273442
0.456764 0.491341 0.0276646
0.539513 0.481895 0.0273899
0.620539 0.470558 0.0268711
0.699397 0.457725 0.0259709
0.774868 0.443915 0.0258793
0.844877 0.428519 0.0248112
0.908461 0.41326 0.0242313
0.964614 0.398154 0.0236057
0.97792 0.383917 0.0231327
0.977615 0.370871 0.0227054
0.97763 0.359258 0.0225834
0.977691 0.349294 0.0225376
0.977691 0.340948 0.022446
0.97734 0.333791 0.0220188
0.977462 0.328496 0.0220493
0.977096 0.323903 0.0216526
0.977035 0.32018 0.0215457
0.977523 0.317784 0.0219883
0.977234 0.315648 0.0216678
0.0243229 0.590051 0.0243229
0.0243229 0.589273 0.0243229
0.0243229 0.588495 0.0243229
0.0243381 0.587686 0.0243381
0.0242924 0.586908 0.0242924
0.0240635 0.586221 0.0240635
0.0240024 0.585275 0.0240024
0.0240177 0.583902 0.0240177
0.024033 0.582147 0.024033
0.024445 0.58024 0.024445
0.0242313 0.577569 0.0242313
0.0904402 0.57406 0.0248875
0.230518 0.570626 0.0264744
0.333211 0.565301 0.0272068
0.425788 0.559365 0.0280003
0.513512 0.551293 0.027924
0.598459 0.541955 0.0279393
0.679606 0.5308 0.0269169
0.757259 0.518685 0.0264897
0.82916 0.506233 0.0259861
0.894209 0.493141 0.0255283
0.951598 0.480781 0.0250401
0.978668 0.468727 0.0246586
0.978363 0.458228 0.0242618
0.978393 0.448951 0.0242466
0.97818 0.440833 0.0239414
0.978073 0.434165 0.0237888
0.978485 0.428916 0.0241398
0.978073 0.424414 0.0236973
0.978027 0.420722 0.023621
0.977783 0.418143 0.0233616
0.978134 0.416266 0.023682
0.978119 0.414542 0.0236515
0.0235142 0.654841 0.0235142
0.0235294 0.654139 0.0235294
0.0235294 0.653422 0.0235294
0.0235447 0.652705 0.0235447
0.0235447 0.651987 0.0235447
0.0235447 0.65127 0.0235447
0.0235142 0.650431 0.0235142
0.0232242 0.649317 0.0232242
0.0232395 0.647745 0.0232395
0.0236362 0.646067 0.0236362
0.0237888 0.643565 0.0237888
0.0234684 0.640345 0.0234684
0.14931 0.637186 0.0251926
0.281682 0.633387 0.026627
0.386603 0.627695 0.0273899
0.482124 0.621286 0.0282292
0.571664 0.613123 0.028275
0.656611 0.603433 0.0276646
0.736553 0.59321 0.0272679
0.810575 0.582208 0.0269474
0.877394 0.57113 0.026627
0.936034 0.560525 0.026154
0.979568 0.550546 0.0260319
0.979217 0.541207 0.0256504
0.979187 0.533379 0.0255741
0.979263 0.526894 0.0256199
0.978836 0.521111 0.0251774
0.979309 0.516808 0.0256046
0.978912 0.5131 0.0251926
0.978882 0.510048 0.0251469
0.978851 0.507683 0.0251164
0.979065 0.50634 0.0253147
0.978973 0.505058 0.0251926
0.0227512 0.719905 0.0227512
0.0227665 0.71928 0.0227665
0.0227665 0.718624 0.0227665
0.0227665 0.717968 0.0227665
0.0227665 0.717311 0.0227665
0.0227817 0.716686 0.0227817
0.0227817 0.715877 0.0227817
0.0228122 0.714794 0.0228122
0.0228885 0.713817 0.0228885
0.0229648 0.712108 0.0229648
0.0229953 0.709728 0.0229953
0.0229801 0.706691 0.0229801
0.0226902 0.702998 0.0226902
0.211429 0.70042 0.0256962
0.338491 0.696147 0.0270237
0.443626 0.690196 0.0275273
0.539773 0.683192 0.027863
0.629862 0.675334 0.0282139
0.713008 0.665904 0.0277409
0.789578 0.656352 0.0275731
0.857923 0.646662 0.0273442
0.918608 0.637552 0.0273899
0.969894 0.628687 0.027039
0.979995 0.620554 0.0266575
0.980041 0.61387 0.0266728
0.980087 0.608301 0.0267185
0.980041 0.60325 0.0266575
0.979675 0.599222 0.0262913
0.980026 0.596292 0.0266423
0.979751 0.593927 0.0263676
0.979751 0.591897 0.0263371
0.979706 0.590311 0.0263218
0.979721 0.58909 0.0263066
0.0221256 0.783475 0.0221256
0.0221256 0.782895 0.0221256
0.0221256 0.7823 0.0221256
0.0221408 0.781704 0.0221408
0.0222171 0.781201 0.0222171
0.0223545 0.780728 0.0223545
0.0225528 0.780209 0.0225528
0.0226596 0.779278 0.0226596
0.0223545 0.778088 0.0223545
0.0223087 0.776394 0.0223087
0.0223392 0.774197 0.0223392
0.0223545 0.771405 0.0223545
0.0225223 0.768566 0.0225223
0.0965133 0.764935 0.0235447
0.277272 0.761593 0.0256046
0.400031 0.757198 0.0276036
0.504662 0.75079 0.0279698
0.599939 0.74377 0.0283665
0.687175 0.735882 0.0285039
0.766445 0.727581 0.0285801
0.837156 0.718639 0.0280461
0.898985 0.710582 0.0280766
0.951919 0.702708 0.0277409
0.980941 0.695781 0.0275731
0.980514 0.689448 0.0271611
0.98085 0.68452 0.0274968
0.980575 0.680079 0.0272221
0.980484 0.676509 0.0271458
0.980652 0.674128 0.0272984
0.980621 0.671824 0.0272831
0.980606 0.670024 0.0272679
0.980591 0.66862 0.0272374
0.980423 0.667582 0.0271
0.0221561 0.844236 0.0221561
0.0221561 0.843702 0.0221561
0.0220645 0.843183 0.0220645
0.0218814 0.84271 0.0218814
0.0217899 0.842191 0.0217899
0.0218051 0.841642 0.0218051
0.0218051 0.84097 0.0218051
0.0218051 0.840009 0.0218051
0.0218051 0.838804 0.0218204
0.0218814 0.837263 0.0218814
0.0223087 0.835706 0.0223087
0.0219883 0.833265 0.0219883
0.0220035 0.83003 0.0220035
0.0219272 0.826185 0.0219272
0.19733 0.823545 0.024567
0.347784 0.819699 0.0263218
0.465431 0.814694 0.0280156
0.567468 0.808469 0.0286412
0.659297 0.801175 0.0286564
0.741344 0.793317 0.028397
0.814527 0.785702 0.0283818
0.878233 0.778225 0.0281987
0.932174 0.771221 0.0279393
0.97789 0.765286 0.028275
0.981521 0.759426 0.0279698
0.981552 0.755062 0.0280003
0.981567 0.751019 0.0280308
0.981155 0.747845 0.0276493
0.98117 0.745251 0.0276799
0.981613 0.743633 0.0281071
0.981582 0.742031 0.0280766
0.981216 0.740902 0.0277409
0.981201 0.739925 0.0277104
0.0219272 0.900252 0.0219272
0.0217594 0.899794 0.0217594
0.0216526 0.899336 0.0216526
0.0216373 0.898817 0.0216373
0.0216373 0.898283 0.0216373
0.0216373 0.89778 0.0216373
0.0216373 0.897154 0.0216373
0.0216526 0.896254 0.0216526
0.0216526 0.895125 0.0216526
0.0220035 0.89398 0.0220035
0.0221561 0.892241 0.0221561
0.0217899 0.889967 0.0217899
0.0217899 0.886946 0.0217899
0.0217136 0.883253 0.0217136
0.0683757 0.879942 0.0227665
0.288212 0.877317 0.0257267
0.422324 0.872938 0.0276341
0.532494 0.867094 0.0281529
0.629587 0.860685 0.0285344
0.716152 0.853956 0.0287938
0.791409 0.846769 0.0286717
0.857069 0.839719 0.0287022
0.912673 0.833326 0.0285344
0.959518 0.82797 0.0286259
0.98233 0.822751 0.0285191
0.982177 0.818463 0.0283818
0.982071 0.81474 0.0282902
0.981979 0.812039 0.0282139
0.982223 0.809888 0.0284581
0.982208 0.80798 0.0284581
0.981994 0.806577 0.0282444
0.981811 0.805508 0.0280766
0.981781 0.804608 0.0280613
0.021912 0.950439 0.0219272
0.022034 0.950072 0.022034
0.0221256 0.949676 0.0221256
0.0221408 0.949203 0.0221408
0.0220951 0.94873 0.0220951
0.021973 0.948287 0.021973
0.0218204 0.947753 0.0218204
0.0217746 0.946929 0.0217746
0.0217746 0.945846 0.0217746
0.0217746 0.944442 0.0217746
0.0217746 0.942657 0.0217746
0.0216831 0.940414 0.0216831
0.021912 0.938186 0.021912
0.021912 0.93463 0.021912
0.0215457 0.930495 0.0215457
0.216831 0.927977 0.0247196
0.376715 0.924544 0.0268864
0.497993 0.919738 0.0283207
0.601053 0.913771 0.0290379
0.690974 0.907362 0.0291752
0.768917 0.900603 0.0289311
0.836561 0.894331 0.0288853
0.89395 0.888304 0.0290532
0.941131 0.882933 0.0287785
0.979995 0.878752 0.0289006
0.982803 0.874403 0.0287633
0.982406 0.871046 0.028397
0.982605 0.868467 0.0286107
0.982864 0.866484 0.0288548
0.982849 0.864729 0.0288548
0.982773 0.863371 0.0287785
0.982467 0.862394 0.0284886
0.982437 0.861585 0.0284581
0.0214084 0.975692 0.0214237
0.0214084 0.975692 0.0214084
0.0214084 0.975677 0.0214084
0.0214084 0.975677 0.0214084
0.0214084 0.975677 0.0214084
0.0214084 0.975692 0.0214084
0.0214084 0.975677 0.0214084
0.0214084 0.975677 0.0214084
0.0214084 0.975692 0.0214084
0.0214084 0.975692 0.0214084
0.0214084 0.975677 0.0214084
0.0214084 0.975692 0.0214237
0.0214084 0.975692 0.0214084
0.0214084 0.975677 0.0214084
0.0214237 0.975204 0.0214237
0.12314 0.972061 0.0234073
0.329854 0.96936 0.0267491
0.46331 0.965103 0.0282444
0.572198 0.959442 0.0286717
0.666636 0.953246 0.0291447
0.748043 0.947402 0.0295109
0.817014 0.941299 0.0292821
0.87541 0.935622 0.0289769
0.924498 0.930846 0.0294652
0.963806 0.926528 0.0291752
0.983505 0.922713 0.0292515
0.983108 0.919554 0.0288701
0.983078 0.916884 0.0288396
0.983047 0.914763 0.0288396
0.983429 0.913497 0.0292058
0.983307 0.912413 0.029099
0.983154 0.911437 0.0289464
0.983139 0.910658 0.0289464
0.0214237 0.975692 0.0214237
0.0214084 0.975692 0.0214084
0.0214084 0.975677 0.0214084
0.0214084 0.975677 0.0214084
0.0214084 0.975677 0.0214084
0.0214084 0.975677 0.0214084
0.0214084 0.975692 0.0214084
0.0214084 0.975677 0.0214084
0.0214084 0.975692 0.0214084
0.0214084 0.975692 0.0214084
0.0214084 0.975677 0.0214084
0.0214084 0.975677 0.0214084
0.0214084 0.975692 0.0214084
0.0214084 0.975692 0.0214084
0.0214084 0.975692 0.0214084
0.0214084 0.975692 0.0214084
0.280522 0.978973 0.0254673
0.429404 0.980728 0.0274205
0.545937 0.981781 0.0284428
0.643748 0.982254 0.0287785
0.72755 0.982742 0.0290837
0.799359 0.980987 0.0296788
0.859083 0.975479 0.0293126
0.908995 0.970718 0.0295415
0.949355 0.966873 0.0295415
0.981674 0.963104 0.0294347
0.983429 0.960052 0.0290227
0.983856 0.957977 0.0294347
0.98381 0.955947 0.0294194
0.98381 0.954376 0.0294041
0.983703 0.95317 0.0293126
0.983444 0.9523 0.0290532
0.983413 0.951583 0.0290227
0.0214237 0.975708 0.0214237
0.0214237 0.975692 0.0214237
0.0214084 0.975692 0.0214084
0.0214084 0.975692 0.0214084
0.0214084 0.975692 0.0214084
0.0214084 0.975677 0.0214084
0.0214084 0.975692 0.0214237
0.0214084 0.975692 0.0214084
0.0214084 0.975677 0.0214084
0.0214084 0.975692 0.0214084
0.0214084 0.975677 0.0214084
0.0214084 0.975692 0.0214084
0.0214084 0.975677 0.0214084
0.0214084 0.975692 0.0214084
0.0214084 0.975692 0.0214084
0.0214237 0.975692 0.0214237
0.231022 0.978607 0.024979
0.39855 0.980484 0.0271458
0.522072 0.981765 0.0284428
0.623682 0.982361 0.0289158
0.710048 0.982971 0.0293431
0.783108 0.983215 0.0294041
0.844312 0.983185 0.02916
0.895079 0.98349 0.0292973
0.936202 0.983658 0.0293126
0.9691 0.983719 0.0292363
0.983459 0.983459 0.0289311
0.983459 0.983459 0.0289311
0.983459 0.983459 0.0289311
0.983444 0.983444 0.0289158
0.983444 0.983444 0.0289311
0.983444 0.983444 0.0289311
0.983444 0.983444 0.0289158
0.0214237 0.975692 0.0214237
0.0214237 0.975692 0.0214237
0.0214237 0.975692 0.0214237
0.0214237 0.975692 0.0214237
0.0214084 0.975677 0.0214084
0.0214084 0.975677 0.0214084
0.0214084 0.975692 0.0214084
0.0214237 0.975692 0.0214237
0.0214084 0.975692 0.0214084
0.0214084 0.975692 0.0214084
0.0214084 0.975677 0.0214084
0.0214084 0.975692 0.0214084
0.0214084 0.975692 0.0214084
0.0214084 0.975692 0.0214237
0.0214237 0.975692 0.0214237
0.0214237 0.975692 0.0214237
0.180194 0.977813 0.0240482
