scripts/05_editing/0500_uxp/LUTs/dark.cube
TITLE "Generated by Resolve"
LUT_3D_SIZE 5
0.0200809 0.0200809 0.0200809
0.236225 0.0212558 0.0212558
0.707134 0.0198367 0.0198367
0.975967 0.0174105 0.0174105
0.975937 0.0173953 0.0173953
0.0245365 0.216815 0.0245365
0.176623 0.196231 0.0256657
0.687709 0.0202792 0.0202792
0.975967 0.0174258 0.0174258
0.975952 0.0174258 0.0174258
0.0235142 0.654841 0.0235142
0.0232395 0.647745 0.0232395
0.571664 0.613123 0.028275
0.979187 0.533379 0.0255741
0.978973 0.505058 0.0251926
0.0214237 0.975708 0.0214237
0.0214084 0.975677 0.0214084
0.231022 0.978607 0.024979
0.936202 0.983658 0.0293126
0.983444 0.983444 0.0289158
0.0214389 0.975708 0.0214389
0.0214237 0.975692 0.0214237
0.0214237 0.975692 0.0214237
0.887892 0.983444 0.0292821
0.983459 0.983459 0.0289311
0.0200809 0.0200809 0.190677
0.227192 0.0218967 0.187533
0.703593 0.0202945 0.154498
0.976074 0.0177615 0.0662547
0.976028 0.0175479 0.0344701
0.0245365 0.187335 0.169299
0.163684 0.163684 0.163684
0.684215 0.0204623 0.121904
0.976028 0.0175021 0.0228122
0.975967 0.0174258 0.0174258
0.023743 0.645731 0.023743
0.0234989 0.638575 0.0234989
0.567666 0.603235 0.0280156
0.978866 0.521828 0.0252079
0.979004 0.492668 0.0251774
0.0214237 0.975692 0.0214237
0.0214237 0.975692 0.0214237
0.221546 0.978424 0.0247654
0.933745 0.983658 0.0293278
0.984192 0.979522 0.0296635
0.0214389 0.975708 0.0214389
0.0214237 0.975692 0.0214237
0.0214237 0.975692 0.0214237
0.885573 0.983352 0.0291905
0.983444 0.983444 0.0289311
0.0202487 0.0202487 0.61294
0.172213 0.0206455 0.610834
0.685878 0.0205234 0.599344
0.974517 0.0179751 0.575814
0.974517 0.0179599 0.569162
0.0203098 0.0203098 0.604486
0.0736858 0.0203403 0.602518
0.666133 0.0206607 0.591241
0.974517 0.0179599 0.567102
0.974517 0.0179446 0.560388
0.0252079 0.594553 0.557137
0.0254368 0.587152 0.555276
0.547906 0.547906 0.547906
0.977844 0.456443 0.524895
0.977569 0.422446 0.517372
0.0240482 0.977295 0.459648
0.0240482 0.977279 0.457038
0.163745 0.978882 0.446113
0.922774 0.962585 0.428077
0.985092 0.947616 0.418921
0.0238651 0.977127 0.423438
0.0239261 0.977188 0.420676
0.024094 0.977371 0.406424
0.873869 0.98471 0.387228
0.984909 0.984909 0.37702
0.0189059 0.0189059 0.985336
0.0189059 0.0189059 0.985351
0.652064 0.0194247 0.979461
0.972885 0.0165866 0.971908
0.972976 0.0167086 0.967651
0.0189212 0.0189212 0.985351
0.0189212 0.0189212 0.985351
0.631098 0.0194247 0.979782
0.973022 0.0167391 0.966293
0.973083 0.0168154 0.962997
0.0233921 0.483375 0.965087
0.0231479 0.473915 0.96379
0.504509 0.421408 0.956985
0.975464 0.292378 0.942275
0.974762 0.23682 0.937621
0.0245518 0.969772 0.91252
0.024155 0.965057 0.910811
0.0242924 0.940322 0.904418
0.899306 0.899306 0.899306
0.982834 0.884138 0.896193
0.0240787 0.978149 0.89453
0.0240787 0.978134 0.893217
0.0240482 0.978088 0.886625
0.852308 0.984741 0.883696
0.986038 0.986038 0.881498
0.0189059 0.0189059 0.985351
0.0189059 0.0189059 0.985351
0.641306 0.0192721 0.979477
0.972885 0.0165866 0.972885
0.972869 0.0165713 0.972869
0.0189212 0.0189212 0.985351
0.0189059 0.0189059 0.985351
0.619837 0.0196841 0.98024
0.972869 0.0165866 0.972869
0.972869 0.0165866 0.972869
0.0229038 0.440772 0.980407
0.022858 0.430335 0.980636
0.489769 0.37142 0.9794
0.974441 0.214389 0.974441
0.973846 0.134768 0.973846
0.0241855 0.949676 0.978424
0.0240024 0.944823 0.97821
0.0242313 0.91957 0.978332
0.891356 0.877989 0.982086
0.982834 0.861906 0.982834
0.024155 0.9785 0.9785
0.0241245 0.978485 0.978485
0.0241398 0.978485 0.978485
0.843854 0.985 0.985
0.986801 0.986801 0.986801
